;FLAVOR:Marlin
;TIME:5849
;Filament used: 4.38294m
;Layer height: 0.2
;MINX:106.34
;MINY:96.34
;MINZ:0.2
;MAXX:193.66
;MAXY:203.66
;MAXZ:3.4
;Generated with Cura_SteamEngine 4.8.0
M140 S60
M105
M190 S60
M104 S200
M105
M109 S200
M82 ;absolute extrusion mode
; -- START GCODE --
G21                     ;set units to millimetres
G90                     ;set to absolute positioning
M106 S0                 ;set fan speed to zero (turned off)
G28                     ;home all axis
M420 S1                 ;turn on mesh bed levelling if enabled in firmware
G92 E0                  ;zero the extruded length
G1 Z1 F1000             ;move up slightly
G1 X60.0 Z0 E9.0 F1000.0;intro line
G1 X100.0 E21.5 F1000.0 ;continue line
G92 E0                  ;zero the extruded length again
; -- end of START GCODE --
G92 E0
G92 E0
G1 F2700 E-8
;LAYER_COUNT:17
;LAYER:0
M107
G0 F3600 X108.552 Y99.234 Z0.2
;TYPE:SKIRT
G1 F2700 E0
G1 F1200 X108.913 Y98.844 E0.02121
G1 X109.236 Y98.551 E0.03862
G1 X109.79 Y98.095 E0.06725
G1 X110.237 Y97.77 E0.08931
G1 X110.593 Y97.557 E0.10587
G1 X111.214 Y97.223 E0.13401
G1 X111.626 Y97.026 E0.15224
G1 X112.126 Y96.842 E0.1735
G1 X112.809 Y96.634 E0.202
G1 X113.163 Y96.54 E0.21662
G1 X113.771 Y96.439 E0.24122
G1 X114.555 Y96.362 E0.27266
G1 X115.001 Y96.34 E0.29048
G1 X184.992 Y96.34 E3.08397
G1 X185.424 Y96.361 E3.10124
G1 X186.212 Y96.436 E3.13283
G1 X187.079 Y96.604 E3.16808
G1 X187.856 Y96.835 E3.20043
G1 X188.573 Y97.116 E3.23117
G1 X188.768 Y97.215 E3.2399
G1 X189.39 Y97.546 E3.26802
G1 X189.933 Y97.885 E3.29357
G1 X190.21 Y98.096 E3.30746
G1 X190.766 Y98.552 E3.33616
G1 X191.156 Y98.913 E3.35737
G1 X191.447 Y99.234 E3.37467
G1 X191.901 Y99.785 E3.40316
G1 X192.23 Y100.236 E3.42544
G1 X192.443 Y100.593 E3.44203
G1 X192.777 Y101.214 E3.47018
G1 X192.974 Y101.626 E3.4884
G1 X193.158 Y102.124 E3.50959
G1 X193.366 Y102.806 E3.53805
G1 X193.463 Y103.176 E3.55332
G1 X193.561 Y103.766 E3.57719
G1 X193.638 Y104.54 E3.60823
G1 X193.66 Y104.991 E3.62626
G1 X193.659 Y195.003 E7.21883
G1 X193.638 Y195.435 E7.23609
G1 X193.564 Y196.212 E7.26724
G1 X193.396 Y197.079 E7.30249
G1 X193.165 Y197.856 E7.33484
G1 X192.884 Y198.573 E7.36558
G1 X192.787 Y198.766 E7.3742
G1 X192.458 Y199.385 E7.40218
G1 X192.121 Y199.924 E7.42755
G1 X191.904 Y200.21 E7.44188
G1 X191.448 Y200.766 E7.47058
G1 X191.087 Y201.156 E7.49179
G1 X190.766 Y201.447 E7.50908
G1 X190.215 Y201.901 E7.53758
G1 X189.764 Y202.23 E7.55986
G1 X189.407 Y202.443 E7.57645
G1 X188.786 Y202.777 E7.60459
G1 X188.374 Y202.974 E7.62282
G1 X187.874 Y203.158 E7.64409
G1 X187.191 Y203.366 E7.67258
G1 X186.837 Y203.46 E7.6872
G1 X186.229 Y203.561 E7.7118
G1 X185.445 Y203.638 E7.74324
G1 X184.999 Y203.66 E7.76106
G1 X114.997 Y203.659 E10.555
G1 X114.565 Y203.638 E10.57226
G1 X113.788 Y203.564 E10.60341
G1 X112.921 Y203.396 E10.63866
G1 X112.144 Y203.165 E10.67101
G1 X111.425 Y202.883 E10.70184
G1 X111.222 Y202.781 E10.7109
G1 X110.608 Y202.454 E10.73867
G1 X110.058 Y202.108 E10.7646
G1 X109.789 Y201.903 E10.7781
G1 X109.233 Y201.447 E10.8068
G1 X108.843 Y201.086 E10.82801
G1 X108.551 Y200.764 E10.84536
G1 X108.098 Y200.214 E10.8738
G1 X107.761 Y199.749 E10.89672
G1 X107.559 Y199.41 E10.91247
G1 X107.224 Y198.789 E10.94063
G1 X107.024 Y198.372 E10.95909
G1 X106.837 Y197.864 E10.9807
G1 X106.631 Y197.183 E11.00909
G1 X106.54 Y196.837 E11.02337
G1 X106.439 Y196.23 E11.04793
G1 X106.362 Y195.448 E11.07929
G1 X106.34 Y195.001 E11.09716
G1 X106.341 Y104.997 E14.68941
G1 X106.362 Y104.565 E14.70667
G1 X106.436 Y103.788 E14.73783
G1 X106.604 Y102.921 E14.77307
G1 X106.835 Y102.144 E14.80543
G1 X107.116 Y101.427 E14.83616
G1 X107.213 Y101.234 E14.84478
G1 X107.542 Y100.615 E14.87276
G1 X107.879 Y100.076 E14.89813
G1 X108.096 Y99.79 E14.91246
G1 X108.552 Y99.234 E14.94116
G0 F3600 X108.923 Y99.539
G1 F1200 X109.302 Y99.135 E14.96327
G1 X109.541 Y98.922 E14.97605
G1 X110.095 Y98.466 E15.00469
G1 X110.502 Y98.17 E15.02477
G1 X110.82 Y97.98 E15.03956
G1 X111.441 Y97.646 E15.0677
G1 X112.265 Y97.301 E15.10335
G1 X112.948 Y97.093 E15.13185
G1 X113.274 Y97.007 E15.14531
G1 X113.818 Y96.917 E15.16731
G1 X114.602 Y96.84 E15.19876
G1 X115.001 Y96.82 E15.2147
G1 X184.992 Y96.82 E18.00819
G1 X185.379 Y96.838 E18.02366
G1 X186.167 Y96.913 E18.05525
G1 X186.943 Y97.064 E18.0868
G1 X187.72 Y97.295 E18.11915
G1 X188.36 Y97.546 E18.14659
G1 X188.543 Y97.638 E18.15477
G1 X189.165 Y97.969 E18.18289
G1 X189.651 Y98.273 E18.20577
G1 X189.905 Y98.467 E18.21853
G1 X190.461 Y98.923 E18.24723
G1 X190.865 Y99.302 E18.26933
G1 X191.077 Y99.54 E18.28206
G1 X191.531 Y100.091 E18.31055
G1 X191.829 Y100.501 E18.33078
G1 X192.02 Y100.82 E18.34562
G1 X192.354 Y101.441 E18.37376
G1 X192.699 Y102.264 E18.40938
G1 X192.907 Y102.946 E18.43784
G1 X192.995 Y103.285 E18.45182
G1 X193.083 Y103.813 E18.47318
G1 X193.16 Y104.587 E18.50423
G1 X193.18 Y104.991 E18.52037
G1 X193.179 Y195.003 E22.11294
G1 X193.161 Y195.39 E22.12841
G1 X193.087 Y196.167 E22.15956
G1 X192.936 Y196.943 E22.19111
G1 X192.705 Y197.72 E22.22346
G1 X192.454 Y198.36 E22.2509
G1 X192.363 Y198.541 E22.25899
G1 X192.034 Y199.16 E22.28697
G1 X191.733 Y199.642 E22.30965
G1 X191.533 Y199.905 E22.32283
G1 X191.077 Y200.461 E22.35153
G1 X190.698 Y200.865 E22.37364
G1 X190.46 Y201.077 E22.38636
G1 X189.909 Y201.531 E22.41486
G1 X189.499 Y201.829 E22.43509
G1 X189.18 Y202.02 E22.44993
G1 X188.559 Y202.354 E22.47807
G1 X187.735 Y202.699 E22.51373
G1 X187.052 Y202.907 E22.54222
G1 X186.726 Y202.993 E22.55568
G1 X186.182 Y203.083 E22.57769
G1 X185.398 Y203.16 E22.60913
G1 X184.999 Y203.18 E22.62507
G1 X114.997 Y203.179 E25.419
G1 X114.61 Y203.161 E25.43447
G1 X113.833 Y203.087 E25.46562
G1 X113.057 Y202.936 E25.49717
G1 X112.28 Y202.705 E25.52952
G1 X111.637 Y202.453 E25.55709
G1 X111.448 Y202.357 E25.56555
G1 X110.834 Y202.03 E25.59331
G1 X110.341 Y201.721 E25.61654
G1 X110.094 Y201.532 E25.62895
G1 X109.538 Y201.076 E25.65765
G1 X109.134 Y200.697 E25.67976
G1 X108.922 Y200.459 E25.69248
G1 X108.469 Y199.909 E25.72092
G1 X108.162 Y199.486 E25.74178
G1 X107.981 Y199.182 E25.7559
G1 X107.646 Y198.561 E25.78406
G1 X107.297 Y197.725 E25.82022
G1 X107.091 Y197.044 E25.84862
G1 X107.007 Y196.726 E25.86174
G1 X106.917 Y196.183 E25.88371
G1 X106.84 Y195.401 E25.91507
G1 X106.82 Y195.001 E25.93106
G1 X106.821 Y104.997 E29.52331
G1 X106.839 Y104.61 E29.53878
G1 X106.913 Y103.833 E29.56993
G1 X107.064 Y103.057 E29.60148
G1 X107.295 Y102.28 E29.63383
G1 X107.546 Y101.64 E29.66127
G1 X107.637 Y101.459 E29.66936
G1 X107.966 Y100.84 E29.69734
G1 X108.267 Y100.358 E29.72002
G1 X108.467 Y100.095 E29.7332
G1 X108.923 Y99.539 E29.7619
G0 F3600 X109.294 Y99.843
G1 F1200 X109.846 Y99.292 E29.79303
G1 X110.4 Y98.836 E29.82167
G1 X111.048 Y98.402 E29.8528
G1 X111.669 Y98.068 E29.88094
G1 X112.405 Y97.76 E29.91279
G1 X113.088 Y97.552 E29.94128
G1 X113.865 Y97.394 E29.97293
G1 X114.649 Y97.317 E30.00437
G1 X115.001 Y97.3 E30.01844
G1 X184.992 Y97.3 E32.81193
G1 X185.333 Y97.316 E32.82555
G1 X186.121 Y97.391 E32.85715
G1 X186.806 Y97.524 E32.885
G1 X187.583 Y97.755 E32.91735
G1 X188.148 Y97.977 E32.94158
G1 X188.317 Y98.062 E32.94913
G1 X188.939 Y98.393 E32.97725
G1 X189.368 Y98.661 E32.99744
G1 X189.601 Y98.838 E33.00912
G1 X190.157 Y99.294 E33.03782
G1 X190.706 Y99.845 E33.06886
G1 X191.16 Y100.396 E33.09736
G1 X191.598 Y101.048 E33.12871
G1 X191.932 Y101.669 E33.15685
G1 X192.239 Y102.404 E33.18864
G1 X192.447 Y103.086 E33.2171
G1 X192.605 Y103.861 E33.24867
G1 X192.682 Y104.635 E33.27971
G1 X192.7 Y104.991 E33.29394
G1 X192.699 Y195.003 E36.88651
G1 X192.683 Y195.344 E36.90014
G1 X192.609 Y196.121 E36.93129
G1 X192.476 Y196.806 E36.95914
G1 X192.245 Y197.583 E36.99149
G1 X192.023 Y198.148 E37.01572
G1 X191.939 Y198.316 E37.02322
G1 X191.61 Y198.935 E37.0512
G1 X191.344 Y199.36 E37.07121
G1 X191.162 Y199.601 E37.08326
G1 X190.706 Y200.157 E37.11196
G1 X190.155 Y200.706 E37.143
G1 X189.604 Y201.16 E37.1715
G1 X188.952 Y201.598 E37.20285
G1 X188.331 Y201.932 E37.23099
G1 X187.595 Y202.24 E37.26284
G1 X186.912 Y202.448 E37.29133
G1 X186.135 Y202.606 E37.32298
G1 X185.351 Y202.683 E37.35442
G1 X184.999 Y202.7 E37.36849
G1 X114.997 Y202.699 E40.16242
G1 X114.656 Y202.683 E40.17604
G1 X113.879 Y202.609 E40.20719
G1 X113.194 Y202.476 E40.23504
G1 X112.417 Y202.245 E40.2674
G1 X111.85 Y202.022 E40.29172
G1 X111.674 Y201.933 E40.29959
G1 X111.06 Y201.606 E40.32735
G1 X110.625 Y201.333 E40.34785
G1 X110.398 Y201.161 E40.35922
G1 X109.842 Y200.705 E40.38792
G1 X109.292 Y200.154 E40.41899
G1 X108.839 Y199.604 E40.44743
G1 X108.404 Y198.954 E40.47864
G1 X108.069 Y198.333 E40.50681
G1 X107.756 Y197.586 E40.53913
G1 X107.55 Y196.905 E40.56753
G1 X107.394 Y196.136 E40.59885
G1 X107.317 Y195.354 E40.63021
G1 X107.3 Y195.001 E40.64431
G1 X107.301 Y104.997 E44.23657
G1 X107.317 Y104.656 E44.25019
G1 X107.391 Y103.879 E44.28134
G1 X107.524 Y103.194 E44.3092
G1 X107.755 Y102.417 E44.34155
G1 X107.977 Y101.852 E44.36578
G1 X108.061 Y101.684 E44.37327
G1 X108.39 Y101.065 E44.40125
G1 X108.656 Y100.64 E44.42126
G1 X108.838 Y100.399 E44.43332
G1 X109.294 Y99.843 E44.46202
G0 F3600 X109.666 Y100.147
G1 F1200 X110.151 Y99.663 E44.48936
G1 X110.705 Y99.207 E44.518
G1 X111.275 Y98.825 E44.54539
G1 X111.896 Y98.491 E44.57353
G1 X112.545 Y98.219 E44.60162
G1 X113.228 Y98.011 E44.63011
G1 X113.912 Y97.872 E44.65797
G1 X114.696 Y97.795 E44.68941
G1 X115.001 Y97.78 E44.7016
G1 X184.992 Y97.78 E47.49509
G1 X185.288 Y97.794 E47.50692
G1 X186.076 Y97.869 E47.53851
G1 X186.669 Y97.984 E47.56262
G1 X187.446 Y98.215 E47.59498
G1 X187.936 Y98.407 E47.61598
G1 X188.092 Y98.486 E47.62296
G1 X188.714 Y98.817 E47.65108
G1 X189.155 Y99.1 E47.67199
G1 X189.297 Y99.21 E47.67916
G1 X189.853 Y99.666 E47.70786
G1 X190.336 Y100.15 E47.73515
G1 X190.79 Y100.701 E47.76365
G1 X191.175 Y101.275 E47.79124
G1 X191.509 Y101.896 E47.81938
G1 X191.78 Y102.544 E47.84741
G1 X191.988 Y103.226 E47.87587
G1 X192.128 Y103.908 E47.90366
G1 X192.205 Y104.682 E47.9347
G1 X192.22 Y104.991 E47.94705
G1 X192.219 Y195.003 E51.53962
G1 X192.205 Y195.299 E51.55145
G1 X192.131 Y196.076 E51.5826
G1 X192.016 Y196.669 E51.60671
G1 X191.785 Y197.446 E51.63906
G1 X191.593 Y197.936 E51.66007
G1 X191.515 Y198.09 E51.66696
G1 X191.186 Y198.709 E51.69494
G1 X190.903 Y199.151 E51.71588
G1 X190.79 Y199.297 E51.72325
G1 X190.334 Y199.853 E51.75195
G1 X189.85 Y200.336 E51.77924
G1 X189.299 Y200.79 E51.80774
G1 X188.725 Y201.175 E51.83533
G1 X188.104 Y201.509 E51.86347
G1 X187.455 Y201.781 E51.89155
G1 X186.772 Y201.989 E51.92005
G1 X186.088 Y202.128 E51.94791
G1 X185.304 Y202.205 E51.97935
G1 X184.999 Y202.22 E51.99154
G1 X114.997 Y202.219 E54.78547
G1 X114.701 Y202.205 E54.7973
G1 X113.924 Y202.131 E54.82845
G1 X113.331 Y202.016 E54.85256
G1 X112.554 Y201.785 E54.88491
G1 X112.062 Y201.592 E54.906
G1 X111.899 Y201.51 E54.91329
G1 X111.285 Y201.183 E54.94105
G1 X110.837 Y200.894 E54.96233
G1 X110.702 Y200.789 E54.96916
G1 X110.146 Y200.333 E54.99786
G1 X109.663 Y199.849 E55.02515
G1 X109.21 Y199.299 E55.05359
G1 X108.826 Y198.726 E55.08112
G1 X108.491 Y198.105 E55.10928
G1 X108.216 Y197.447 E55.13774
G1 X108.01 Y196.766 E55.16614
G1 X107.872 Y196.089 E55.19371
G1 X107.795 Y195.307 E55.22508
G1 X107.78 Y195.001 E55.2373
G1 X107.781 Y104.997 E58.82956
G1 X107.795 Y104.701 E58.84138
G1 X107.869 Y103.924 E58.87254
G1 X107.984 Y103.331 E58.89665
G1 X108.215 Y102.554 E58.929
G1 X108.407 Y102.064 E58.95
G1 X108.485 Y101.91 E58.95689
G1 X108.814 Y101.291 E58.98487
G1 X109.097 Y100.849 E59.00582
G1 X109.21 Y100.703 E59.01319
G1 X109.666 Y100.147 E59.04189
G0 F3600 X110.037 Y100.452
G1 F1200 X110.456 Y100.034 E59.06551
G1 X111.01 Y99.578 E59.09415
G1 X111.502 Y99.248 E59.11779
G1 X112.123 Y98.914 E59.14594
G1 X112.685 Y98.679 E59.17025
G1 X113.368 Y98.471 E59.19874
G1 X113.959 Y98.35 E59.22282
G1 X114.743 Y98.273 E59.25426
G1 X115.001 Y98.26 E59.26457
G1 X184.992 Y98.26 E62.05807
G1 X185.242 Y98.272 E62.06806
G1 X186.03 Y98.347 E62.09965
G1 X186.532 Y98.444 E62.12006
G1 X187.309 Y98.675 E62.15241
G1 X187.793 Y98.872 E62.17326
G1 X187.866 Y98.909 E62.17653
G1 X188.488 Y99.24 E62.20465
G1 X188.992 Y99.581 E62.22894
G1 X189.548 Y100.037 E62.25764
G1 X189.965 Y100.455 E62.28121
G1 X190.419 Y101.006 E62.3097
G1 X190.752 Y101.502 E62.33355
G1 X191.086 Y102.123 E62.36169
G1 X191.321 Y102.684 E62.38596
G1 X191.529 Y103.366 E62.41442
G1 X191.65 Y103.956 E62.43846
G1 X191.727 Y104.73 E62.4695
G1 X191.74 Y104.991 E62.47993
G1 X191.739 Y195.003 E66.07251
G1 X191.727 Y195.253 E66.0825
G1 X191.653 Y196.03 E66.11365
G1 X191.556 Y196.532 E66.13406
G1 X191.325 Y197.309 E66.16641
G1 X191.128 Y197.793 E66.18727
G1 X190.762 Y198.484 E66.21847
G1 X190.419 Y198.992 E66.24294
G1 X189.963 Y199.548 E66.27164
G1 X189.545 Y199.965 E66.2952
G1 X188.994 Y200.419 E66.3237
G1 X188.498 Y200.752 E66.34754
G1 X187.877 Y201.086 E66.37569
G1 X187.315 Y201.321 E66.4
G1 X186.632 Y201.529 E66.4285
G1 X186.041 Y201.65 E66.45257
G1 X185.257 Y201.727 E66.48401
G1 X184.999 Y201.74 E66.49433
G1 X114.997 Y201.739 E69.28826
G1 X114.747 Y201.727 E69.29825
G1 X113.97 Y201.653 E69.3294
G1 X113.468 Y201.556 E69.3498
G1 X112.691 Y201.325 E69.38216
G1 X112.198 Y201.123 E69.40342
G1 X112.125 Y201.086 E69.40669
G1 X111.511 Y200.759 E69.43445
G1 X111.007 Y200.418 E69.45874
G1 X110.451 Y199.962 E69.48744
G1 X110.033 Y199.543 E69.51106
G1 X109.58 Y198.993 E69.5395
G1 X109.249 Y198.498 E69.56327
G1 X108.914 Y197.877 E69.59143
G1 X108.675 Y197.308 E69.61606
G1 X108.469 Y196.627 E69.64446
G1 X108.35 Y196.042 E69.66829
G1 X108.273 Y195.26 E69.69965
G1 X108.26 Y195.001 E69.71
G1 X108.261 Y104.997 E73.30225
G1 X108.273 Y104.747 E73.31224
G1 X108.347 Y103.97 E73.34339
G1 X108.444 Y103.468 E73.3638
G1 X108.675 Y102.691 E73.39615
G1 X108.872 Y102.207 E73.41701
G1 X109.238 Y101.516 E73.44822
G1 X109.581 Y101.008 E73.47268
G1 X110.037 Y100.452 E73.50138
G0 F3600 X110.408 Y100.756
G1 F1200 X110.761 Y100.404 E73.52128
G1 X111.315 Y99.948 E73.54992
G1 X111.73 Y99.671 E73.56983
G1 X112.351 Y99.337 E73.59797
G1 X112.825 Y99.138 E73.61849
G1 X113.508 Y98.93 E73.64699
G1 X114.006 Y98.827 E73.66729
G1 X114.79 Y98.75 E73.69873
G1 X115.001 Y98.74 E73.70716
G1 X184.992 Y98.74 E76.50065
G1 X185.197 Y98.75 E76.50884
G1 X185.985 Y98.825 E76.54044
G1 X186.396 Y98.905 E76.55715
G1 X187.173 Y99.136 E76.5895
G1 X187.641 Y99.333 E76.60977
G1 X188.263 Y99.664 E76.63789
G1 X188.688 Y99.952 E76.65838
G1 X189.244 Y100.408 E76.68708
G1 X189.595 Y100.76 E76.70692
G1 X190.049 Y101.311 E76.73541
G1 X190.329 Y101.73 E76.75553
G1 X190.663 Y102.351 E76.78367
G1 X190.862 Y102.824 E76.80415
G1 X191.07 Y103.506 E76.83261
G1 X191.172 Y104.003 E76.85286
G1 X191.249 Y104.777 E76.8839
G1 X191.26 Y104.991 E76.89246
G1 X191.259 Y195.003 E80.48503
G1 X191.249 Y195.208 E80.49322
G1 X191.175 Y195.985 E80.52437
G1 X191.095 Y196.396 E80.54109
G1 X190.864 Y197.173 E80.57344
G1 X190.667 Y197.64 E80.59367
G1 X190.338 Y198.259 E80.62165
G1 X190.048 Y198.688 E80.64231
G1 X189.592 Y199.244 E80.67101
G1 X189.24 Y199.595 E80.69085
G1 X188.689 Y200.049 E80.71935
G1 X188.27 Y200.329 E80.73946
G1 X187.649 Y200.663 E80.76761
G1 X187.175 Y200.862 E80.78812
G1 X186.492 Y201.07 E80.81662
G1 X185.994 Y201.173 E80.83692
G1 X185.21 Y201.25 E80.86836
G1 X184.999 Y201.26 E80.87679
G1 X114.997 Y201.259 E83.67072
G1 X114.792 Y201.249 E83.67891
G1 X114.015 Y201.175 E83.71006
G1 X113.604 Y201.095 E83.72678
G1 X112.827 Y200.864 E83.75913
G1 X112.351 Y200.662 E83.77977
G1 X111.737 Y200.335 E83.80753
G1 X111.311 Y200.047 E83.82806
G1 X110.755 Y199.591 E83.85676
G1 X110.404 Y199.238 E83.87662
G1 X109.951 Y198.688 E83.90506
G1 X109.671 Y198.271 E83.92511
G1 X109.336 Y197.65 E83.95327
G1 X109.135 Y197.169 E83.97408
G1 X108.929 Y196.488 E84.00248
G1 X108.827 Y195.995 E84.02257
G1 X108.75 Y195.213 E84.05393
G1 X108.74 Y195.001 E84.0624
G1 X108.741 Y104.997 E87.65466
G1 X108.751 Y104.792 E87.66285
G1 X108.825 Y104.015 E87.694
G1 X108.905 Y103.604 E87.71071
G1 X109.136 Y102.827 E87.74306
G1 X109.333 Y102.36 E87.76329
G1 X109.662 Y101.741 E87.79127
G1 X109.952 Y101.312 E87.81194
