;FLAVOR:Marlin
;TIME:7846
;Filament used: 6.1044m
;Layer height: 0.2
;MINX:87.89
;MINY:58.346
;MINZ:0.2
;MAXX:211.93
;MAXY:140.839
;MAXZ:15
;Generated with Cura_SteamEngine 4.8.0
M140 S60
M105
M190 S60
M104 S200
M105
M109 S200
M82 ;absolute extrusion mode
; -- START GCODE --
G21                     ;set units to millimetres
G90                     ;set to absolute positioning
M106 S0                 ;set fan speed to zero (turned off)
G28                     ;home all axis
M420 S1                 ;turn on mesh bed levelling if enabled in firmware
G92 E0                  ;zero the extruded length
G1 Z1 F1000             ;move up slightly
G1 X60.0 Z0 E9.0 F1000.0;intro line
G1 X100.0 E21.5 F1000.0 ;continue line
G92 E0                  ;zero the extruded length again
; -- end of START GCODE --
G92 E0
G92 E0
G1 F2700 E-8
;LAYER_COUNT:75
;LAYER:0
M107
G0 F3600 X94.216 Y60.742 Z0.2
;TYPE:SKIRT
G1 F2700 E0
G1 F1200 X94.554 Y60.242 E0.02409
G1 X94.926 Y59.823 E0.04645
G1 X95.067 Y59.682 E0.05441
G1 X95.521 Y59.284 E0.07851
G1 X96.023 Y58.95 E0.10257
G1 X96.566 Y58.685 E0.12669
G1 X97.139 Y58.494 E0.15079
G1 X97.731 Y58.38 E0.17486
G1 X98.291 Y58.346 E0.19725
G1 X201.709 Y58.346 E4.32488
G1 X202.311 Y58.386 E4.34896
G1 X202.903 Y58.505 E4.37307
G1 X203.474 Y58.701 E4.39716
G1 X204.014 Y58.971 E4.42126
G1 X204.513 Y59.31 E4.44533
G1 X204.933 Y59.682 E4.46773
G1 X205.074 Y59.823 E4.47569
G1 X205.472 Y60.277 E4.49978
G1 X205.806 Y60.779 E4.52385
G1 X206.071 Y61.322 E4.54796
G1 X206.262 Y61.895 E4.57207
G1 X206.376 Y62.487 E4.59613
G1 X206.41 Y63.047 E4.61852
G1 X206.411 Y83.245 E5.42467
G1 X206.335 Y84.074 E5.4579
G1 X206.254 Y84.512 E5.47567
G1 X206.105 Y85.097 E5.49977
G1 X205.872 Y85.675 E5.52464
G1 X205.719 Y85.99 E5.53862
G1 X205.42 Y86.515 E5.56273
G1 X205.048 Y87.002 E5.58719
G1 X204.816 Y87.267 E5.60125
G1 X204.389 Y87.694 E5.62535
G1 X203.933 Y88.045 E5.64832
G1 X203.645 Y88.239 E5.66218
G1 X203.123 Y88.542 E5.68627
G1 X202.59 Y88.766 E5.70934
G1 X202.264 Y88.879 E5.72311
G1 X201.682 Y89.038 E5.74719
G1 X201.082 Y89.128 E5.77141
G1 X200.489 Y89.167 E5.79513
G1 X182.641 Y89.167 E6.50748
G1 X182.039 Y89.127 E6.53156
G1 X181.447 Y89.008 E6.55566
G1 X180.876 Y88.812 E6.57976
G1 X180.336 Y88.542 E6.60385
G1 X179.837 Y88.203 E6.62793
G1 X179.417 Y87.831 E6.65032
G1 X179.276 Y87.69 E6.65828
G1 X178.878 Y87.236 E6.68238
G1 X178.544 Y86.734 E6.70644
G1 X178.279 Y86.191 E6.73056
G1 X178.088 Y85.618 E6.75467
G1 X177.974 Y85.026 E6.77873
G1 X177.94 Y84.466 E6.80112
G1 X177.94 Y74.816 E7.18627
G1 X122.06 Y74.816 E9.41656
G1 X122.06 Y84.465 E9.80168
G1 X122.02 Y85.067 E9.82576
G1 X121.901 Y85.659 E9.84986
G1 X121.705 Y86.23 E9.87395
G1 X121.435 Y86.77 E9.89805
G1 X121.096 Y87.269 E9.92213
G1 X120.724 Y87.689 E9.94452
G1 X120.583 Y87.83 E9.95248
G1 X120.129 Y88.228 E9.97657
G1 X119.627 Y88.562 E10.00064
G1 X119.084 Y88.827 E10.02476
G1 X118.511 Y89.018 E10.04886
G1 X117.919 Y89.132 E10.07292
G1 X117.359 Y89.166 E10.09532
G1 X99.51 Y89.166 E10.80771
G1 X98.701 Y89.094 E10.84013
G1 X98.263 Y89.015 E10.85789
G1 X97.677 Y88.868 E10.882
G1 X97.064 Y88.621 E10.90838
G1 X96.75 Y88.467 E10.92234
G1 X96.227 Y88.166 E10.94642
G1 X95.753 Y87.803 E10.97025
G1 X95.487 Y87.57 E10.98437
G1 X95.061 Y87.143 E11.00844
G1 X94.708 Y86.685 E11.03152
G1 X94.515 Y86.398 E11.04532
G1 X94.212 Y85.876 E11.06941
G1 X93.989 Y85.342 E11.09251
G1 X93.876 Y85.015 E11.10632
G1 X93.717 Y84.433 E11.1304
G1 X93.628 Y83.843 E11.15421
G1 X93.589 Y83.246 E11.17809
G1 X93.589 Y82.03 E11.22662
G1 X93.263 Y82.045 E11.23965
G1 X92.661 Y81.994 E11.26376
G1 X92.072 Y81.863 E11.28784
G1 X91.505 Y81.656 E11.31194
G1 X90.97 Y81.376 E11.33604
G1 X90.663 Y81.171 E11.35077
G1 X90.139 Y80.789 E11.37665
G1 X89.676 Y80.402 E11.40074
G1 X89.268 Y79.957 E11.42483
G1 X88.922 Y79.462 E11.44894
G1 X88.645 Y78.926 E11.47302
G1 X88.489 Y78.516 E11.49053
G1 X88.108 Y77.346 E11.53964
G1 X87.96 Y76.761 E11.56372
G1 X87.89 Y76.161 E11.58783
G1 X87.9 Y75.558 E11.6119
G1 X87.989 Y74.961 E11.63599
G1 X88.108 Y74.522 E11.65415
G1 X88.489 Y73.352 E11.70326
G1 X88.714 Y72.792 E11.72734
G1 X89.01 Y72.266 E11.75143
G1 X89.374 Y71.784 E11.77554
G1 X89.797 Y71.354 E11.79961
G1 X90.139 Y71.079 E11.81713
G1 X90.663 Y70.697 E11.84301
G1 X91.173 Y70.375 E11.86708
G1 X91.721 Y70.122 E11.89117
G1 X92.298 Y69.945 E11.91526
G1 X92.894 Y69.845 E11.93938
G1 X93.497 Y69.824 E11.96346
G1 X93.59 Y69.833 E11.96719
G1 X93.59 Y63.047 E12.23804
G1 X93.63 Y62.444 E12.26216
G1 X93.749 Y61.853 E12.28622
G1 X93.946 Y61.282 E12.31033
G1 X94.216 Y60.742 E12.33442
G0 F3600 X94.694 Y60.879
G1 F1200 X95.03 Y60.418 E12.35719
G1 X95.406 Y60.021 E12.37902
G1 X95.837 Y59.647 E12.40179
G1 X96.316 Y59.336 E12.42459
G1 X96.834 Y59.095 E12.44739
G1 X97.38 Y58.929 E12.47016
G1 X97.944 Y58.841 E12.49295
G1 X98.291 Y58.826 E12.50681
G1 X201.709 Y58.826 E16.63445
G1 X202.279 Y58.866 E16.65725
G1 X202.837 Y58.985 E16.68002
G1 X203.373 Y59.181 E16.7028
G1 X203.877 Y59.45 E16.7256
G1 X204.338 Y59.786 E16.74837
G1 X204.735 Y60.162 E16.7702
G1 X205.109 Y60.593 E16.79297
G1 X205.42 Y61.072 E16.81577
G1 X205.661 Y61.59 E16.83857
G1 X205.827 Y62.136 E16.86134
G1 X205.915 Y62.7 E16.88413
G1 X205.93 Y63.047 E16.89799
G1 X205.931 Y83.245 E17.70414
G1 X205.863 Y83.987 E17.73387
G1 X205.782 Y84.425 E17.75165
G1 X205.639 Y84.978 E17.77445
G1 X205.44 Y85.466 E17.79548
G1 X205.287 Y85.781 E17.80946
G1 X205.002 Y86.275 E17.83222
G1 X204.687 Y86.686 E17.85289
G1 X204.455 Y86.951 E17.86695
G1 X204.05 Y87.353 E17.88972
G1 X203.376 Y87.841 E17.92294
G1 X202.882 Y88.126 E17.9457
G1 X202.107 Y88.425 E17.97885
G1 X201.302 Y88.615 E18.01186
G1 X201.02 Y88.652 E18.02322
G1 X200.489 Y88.687 E18.04446
G1 X182.641 Y88.687 E18.75681
G1 X182.071 Y88.647 E18.77961
G1 X181.513 Y88.528 E18.80239
G1 X180.977 Y88.332 E18.82516
G1 X180.473 Y88.063 E18.84797
G1 X180.012 Y87.727 E18.87073
G1 X179.615 Y87.351 E18.89256
G1 X179.241 Y86.92 E18.91533
G1 X178.93 Y86.441 E18.93813
G1 X178.689 Y85.923 E18.96093
G1 X178.523 Y85.377 E18.98371
G1 X178.435 Y84.813 E19.00649
G1 X178.42 Y84.466 E19.02035
G1 X178.42 Y74.336 E19.42466
G1 X121.58 Y74.336 E21.69327
G1 X121.58 Y84.465 E22.09754
G1 X121.54 Y85.035 E22.12035
G1 X121.421 Y85.593 E22.14312
G1 X121.225 Y86.129 E22.1659
G1 X120.956 Y86.633 E22.1887
G1 X120.62 Y87.094 E22.21147
G1 X120.244 Y87.491 E22.23329
G1 X119.813 Y87.865 E22.25607
G1 X119.334 Y88.176 E22.27886
G1 X118.816 Y88.417 E22.30166
G1 X118.27 Y88.583 E22.32444
G1 X117.706 Y88.671 E22.34722
G1 X117.359 Y88.686 E22.36108
G1 X99.51 Y88.686 E23.07348
G1 X98.786 Y88.621 E23.10249
G1 X98.348 Y88.542 E23.12025
G1 X97.794 Y88.402 E23.14306
G1 X97.275 Y88.19 E23.16543
G1 X96.961 Y88.036 E23.17939
G1 X96.468 Y87.749 E23.20216
G1 X96.07 Y87.442 E23.22222
G1 X95.804 Y87.209 E23.23634
G1 X95.402 Y86.804 E23.25911
G1 X94.913 Y86.13 E23.29235
G1 X94.629 Y85.635 E23.31512
G1 X94.33 Y84.859 E23.34832
G1 X94.141 Y84.06 E23.38109
G1 X94.104 Y83.78 E23.39236
G1 X94.069 Y83.246 E23.41372
G1 X94.069 Y81.5 E23.4834
G1 X94.04 Y81.507 E23.48459
G1 X93.472 Y81.564 E23.50738
G1 X92.902 Y81.541 E23.53015
G1 X92.34 Y81.439 E23.55294
G1 X91.798 Y81.26 E23.57573
G1 X91.286 Y81.006 E23.59854
G1 X90.946 Y80.783 E23.61477
G1 X90.422 Y80.401 E23.64065
G1 X89.985 Y80.033 E23.66345
G1 X89.604 Y79.608 E23.68623
G1 X89.286 Y79.134 E23.70901
G1 X88.946 Y78.367 E23.7425
G1 X88.565 Y77.197 E23.79161
G1 X88.426 Y76.643 E23.8144
G1 X88.366 Y76.076 E23.83716
G1 X88.387 Y75.505 E23.85997
G1 X88.565 Y74.671 E23.894
G1 X88.946 Y73.501 E23.94311
G1 X89.16 Y72.971 E23.96593
G1 X89.446 Y72.477 E23.98871
G1 X89.798 Y72.028 E24.01148
G1 X90.422 Y71.467 E24.04497
G1 X90.946 Y71.085 E24.07085
G1 X91.429 Y70.782 E24.09361
G1 X91.951 Y70.549 E24.11642
G1 X92.499 Y70.391 E24.13919
G1 X93.065 Y70.312 E24.162
G1 X93.636 Y70.312 E24.18479
G1 X94.07 Y70.373 E24.20228
G1 X94.07 Y63.047 E24.49467
G1 X94.11 Y62.477 E24.51748
G1 X94.229 Y61.919 E24.54025
G1 X94.425 Y61.383 E24.56303
G1 X94.694 Y60.879 E24.58583
G0 F3600 X95.172 Y61.025
G1 F1200 X95.604 Y60.501 E24.61294
G1 X95.745 Y60.36 E24.6209
G1 X96.152 Y60.011 E24.64229
G1 X96.606 Y59.725 E24.66371
G1 X97.097 Y59.51 E24.6851
G1 X97.615 Y59.37 E24.70652
G1 X98.291 Y59.306 E24.73362
G1 X201.709 Y59.306 E28.86126
G1 X202.244 Y59.346 E28.88267
G1 X202.767 Y59.465 E28.90408
G1 X203.266 Y59.66 E28.92546
G1 X203.731 Y59.928 E28.94688
G1 X204.255 Y60.36 E28.97399
G1 X204.396 Y60.501 E28.98194
G1 X204.745 Y60.908 E29.00334
G1 X205.031 Y61.362 E29.02476
G1 X205.246 Y61.853 E29.04615
G1 X205.386 Y62.371 E29.06757
G1 X205.45 Y63.047 E29.09467
G1 X205.451 Y83.245 E29.90082
G1 X205.391 Y83.9 E29.92707
G1 X205.31 Y84.338 E29.94485
G1 X205.173 Y84.856 E29.96623
G1 X204.855 Y85.571 E29.99746
G1 X204.586 Y86.034 E30.01884
G1 X204.094 Y86.634 E30.0498
G1 X203.711 Y87.01 E30.07123
G1 X203.108 Y87.443 E30.10086
G1 X202.642 Y87.708 E30.12225
G1 X201.95 Y87.971 E30.1518
G1 X201.239 Y88.139 E30.18096
G1 X200.489 Y88.207 E30.21101
G1 X182.641 Y88.207 E30.92337
G1 X182.106 Y88.167 E30.94478
G1 X181.583 Y88.048 E30.96619
G1 X181.084 Y87.853 E30.98757
G1 X180.619 Y87.585 E31.00899
G1 X180.095 Y87.153 E31.03609
G1 X179.954 Y87.012 E31.04405
G1 X179.605 Y86.605 E31.06545
G1 X179.319 Y86.151 E31.08687
G1 X179.104 Y85.66 E31.10826
G1 X178.964 Y85.142 E31.12968
G1 X178.9 Y84.466 E31.15678
G1 X178.9 Y73.856 E31.58025
G1 X121.1 Y73.856 E33.88717
G1 X121.1 Y84.465 E34.3106
G1 X121.06 Y85 E34.33201
G1 X120.941 Y85.523 E34.35342
G1 X120.746 Y86.022 E34.3748
G1 X120.478 Y86.487 E34.39622
G1 X120.046 Y87.011 E34.42333
G1 X119.905 Y87.152 E34.43129
G1 X119.498 Y87.501 E34.45268
G1 X119.044 Y87.787 E34.4741
G1 X118.553 Y88.002 E34.49549
G1 X118.035 Y88.142 E34.51691
G1 X117.359 Y88.206 E34.54401
G1 X99.51 Y88.206 E35.2564
G1 X98.871 Y88.149 E35.28201
G1 X98.433 Y88.07 E35.29977
G1 X97.914 Y87.936 E35.32117
G1 X97.173 Y87.605 E35.35356
G1 X96.71 Y87.334 E35.37497
G1 X96.12 Y86.848 E35.40548
G1 X95.744 Y86.466 E35.42687
G1 X95.312 Y85.862 E35.45651
G1 X95.046 Y85.396 E35.47793
G1 X94.783 Y84.702 E35.50755
G1 X94.617 Y83.998 E35.53642
G1 X94.549 Y83.246 E35.56655
G1 X94.549 Y80.872 E35.6613
G1 X94.166 Y80.992 E35.67732
G1 X93.636 Y81.075 E35.69873
G1 X93.099 Y81.077 E35.72017
G1 X92.569 Y81 E35.74154
G1 X92.055 Y80.846 E35.76296
G1 X91.571 Y80.616 E35.78435
G1 X91.228 Y80.395 E35.80063
G1 X90.704 Y80.013 E35.82651
G1 X90.296 Y79.666 E35.84789
G1 X89.943 Y79.262 E35.8693
G1 X89.655 Y78.81 E35.89069
G1 X89.402 Y78.219 E35.91635
G1 X89.021 Y77.049 E35.96546
G1 X88.893 Y76.528 E35.98688
G1 X88.844 Y75.994 E36.00828
G1 X88.876 Y75.458 E36.02971
G1 X89.021 Y74.819 E36.05586
G1 X89.402 Y73.649 E36.10497
G1 X89.605 Y73.153 E36.12636
G1 X89.881 Y72.693 E36.14777
G1 X90.221 Y72.278 E36.16919
G1 X90.704 Y71.855 E36.19481
G1 X91.228 Y71.473 E36.22069
G1 X91.684 Y71.19 E36.24211
G1 X92.177 Y70.978 E36.26353
G1 X92.695 Y70.842 E36.28491
G1 X93.228 Y70.784 E36.30631
G1 X93.764 Y70.806 E36.32772
G1 X94.291 Y70.907 E36.34913
G1 X94.55 Y70.998 E36.36009
G1 X94.55 Y63.047 E36.67743
G1 X94.59 Y62.512 E36.69884
G1 X94.709 Y61.989 E36.72025
G1 X94.904 Y61.49 E36.74163
G1 X95.172 Y61.025 E36.76305
G0 F3600 X95.383 Y61.605
G1 F1200 X95.649 Y61.182 E36.783
G1 X96.085 Y60.7 E36.80894
G1 X96.465 Y60.376 E36.82887
G1 X96.892 Y60.117 E36.8488
G1 X97.354 Y59.93 E36.8687
G1 X97.841 Y59.819 E36.88863
G1 X98.291 Y59.786 E36.90664
G1 X201.709 Y59.786 E41.03428
G1 X202.207 Y59.826 E41.05422
G1 X202.691 Y59.945 E41.07411
G1 X203.151 Y60.139 E41.09403
G1 X203.574 Y60.405 E41.11398
G1 X204.056 Y60.841 E41.13992
G1 X204.38 Y61.221 E41.15985
G1 X204.639 Y61.648 E41.17978
G1 X204.826 Y62.11 E41.19967
G1 X204.937 Y62.597 E41.21961
G1 X204.97 Y63.047 E41.23762
G1 X204.971 Y83.245 E42.04376
G1 X204.919 Y83.812 E42.06649
G1 X204.708 Y84.732 E42.10416
G1 X204.423 Y85.361 E42.13172
G1 X204.17 Y85.791 E42.15164
G1 X203.732 Y86.318 E42.17899
G1 X203.128 Y86.851 E42.21114
G1 X202.405 Y87.29 E42.2449
G1 X201.793 Y87.518 E42.27096
G1 X201.177 Y87.663 E42.29622
G1 X200.489 Y87.727 E42.3238
G1 X182.641 Y87.727 E43.03615
G1 X182.143 Y87.687 E43.05609
G1 X181.659 Y87.568 E43.07598
G1 X181.199 Y87.374 E43.09591
G1 X180.776 Y87.108 E43.11585
G1 X180.294 Y86.672 E43.14179
G1 X179.97 Y86.292 E43.16173
G1 X179.711 Y85.865 E43.18166
G1 X179.524 Y85.403 E43.20155
G1 X179.413 Y84.916 E43.22149
G1 X179.38 Y84.466 E43.23949
G1 X179.38 Y73.376 E43.68212
G1 X120.62 Y73.376 E46.02736
G1 X120.62 Y84.465 E46.46995
G1 X120.58 Y84.963 E46.48989
G1 X120.461 Y85.447 E46.50978
G1 X120.267 Y85.907 E46.5297
G1 X120.001 Y86.33 E46.54965
G1 X119.565 Y86.812 E46.57559
G1 X119.185 Y87.136 E46.59552
G1 X118.758 Y87.395 E46.61545
G1 X118.296 Y87.582 E46.63534
G1 X117.809 Y87.693 E46.65528
G1 X117.359 Y87.726 E46.67329
G1 X99.51 Y87.726 E47.38568
G1 X98.956 Y87.676 E47.40788
G1 X98.036 Y87.47 E47.44551
G1 X97.384 Y87.174 E47.47409
G1 X96.955 Y86.919 E47.49401
G1 X96.436 Y86.487 E47.52096
G1 X95.903 Y85.881 E47.55317
G1 X95.465 Y85.159 E47.58687
G1 X95.237 Y84.545 E47.61302
G1 X95.093 Y83.935 E47.63803
G1 X95.029 Y83.246 E47.66565
G1 X95.029 Y80.106 E47.79097
G1 X94.705 Y80.296 E47.80596
G1 X94.239 Y80.476 E47.8259
G1 X93.751 Y80.58 E47.84582
G1 X93.253 Y80.605 E47.86572
G1 X92.756 Y80.549 E47.88568
G1 X92.275 Y80.415 E47.90561
G1 X91.822 Y80.207 E47.9255
G1 X91.511 Y80.007 E47.94026
G1 X90.987 Y79.625 E47.96614
G1 X90.608 Y79.3 E47.98607
G1 X90.287 Y78.918 E48.00599
G1 X90.03 Y78.49 E48.02591
G1 X89.858 Y78.07 E48.04403
G1 X89.477 Y76.9 E48.09314
G1 X89.361 Y76.415 E48.11304
G1 X89.324 Y75.917 E48.13297
G1 X89.367 Y75.419 E48.15292
G1 X89.477 Y74.968 E48.17145
G1 X89.858 Y73.798 E48.22056
G1 X90.05 Y73.337 E48.24049
G1 X90.313 Y72.913 E48.2604
G1 X90.641 Y72.536 E48.28035
G1 X90.987 Y72.243 E48.29845
G1 X91.511 Y71.861 E48.32433
G1 X91.937 Y71.6 E48.34427
G1 X92.398 Y71.41 E48.36417
G1 X92.885 Y71.297 E48.38412
G1 X93.383 Y71.262 E48.40405
G1 X93.88 Y71.307 E48.42396
G1 X94.363 Y71.431 E48.44387
G1 X94.821 Y71.631 E48.46381
G1 X95.03 Y71.765 E48.47372
G1 X95.03 Y63.047 E48.82168
G1 X95.07 Y62.549 E48.84162
G1 X95.189 Y62.064 E48.86155
G1 X95.383 Y61.605 E48.88144
G0 F3600 X95.862 Y61.73
G1 F1200 X96.283 Y61.18 E48.90908
G1 X96.776 Y60.744 E48.93535
G1 X97.173 Y60.514 E48.95366
G1 X97.605 Y60.357 E48.97201
G1 X98.291 Y60.266 E48.99963
G1 X201.709 Y60.266 E53.12726
G1 X202.166 Y60.306 E53.14557
G1 X202.61 Y60.424 E53.16391
G1 X203.026 Y60.618 E53.18223
G1 X203.576 Y61.039 E53.20987
G1 X204.012 Y61.532 E53.23614
G1 X204.242 Y61.929 E53.25445
G1 X204.399 Y62.361 E53.2728
G1 X204.49 Y63.047 E53.30042
G1 X204.491 Y83.245 E54.10656
G1 X204.366 Y84.163 E54.14354
G1 X204.145 Y84.836 E54.17181
G1 X203.756 Y85.545 E54.20409
G1 X203.371 Y86.002 E54.22794
G1 X202.86 Y86.453 E54.25514
G1 X202.572 Y86.647 E54.269
G1 X201.962 Y86.951 E54.2962
G1 X201.636 Y87.064 E54.30998
G1 X201.114 Y87.188 E54.33139
G1 X200.489 Y87.247 E54.35645
G1 X182.641 Y87.247 E55.0688
G1 X182.184 Y87.207 E55.08711
G1 X181.74 Y87.089 E55.10544
G1 X181.324 Y86.895 E55.12376
G1 X180.774 Y86.474 E55.15141
G1 X180.338 Y85.981 E55.17768
G1 X180.108 Y85.584 E55.19599
G1 X179.951 Y85.152 E55.21433
G1 X179.86 Y84.466 E55.24195
G1 X179.86 Y72.896 E55.70374
G1 X120.14 Y72.896 E58.08729
G1 X120.14 Y84.465 E58.54903
G1 X120.1 Y84.922 E58.56734
G1 X119.982 Y85.366 E58.58568
G1 X119.788 Y85.782 E58.604
G1 X119.367 Y86.332 E58.63164
G1 X118.874 Y86.768 E58.65791
G1 X118.477 Y86.998 E58.67622
G1 X118.045 Y87.155 E58.69457
G1 X117.359 Y87.246 E58.72219
G1 X99.51 Y87.246 E59.43458
G1 X98.603 Y87.125 E59.4711
G1 X97.91 Y86.897 E59.50022
G1 X97.202 Y86.506 E59.5325
G1 X96.752 Y86.126 E59.55601
G1 X96.301 Y85.613 E59.58327
G1 X96.108 Y85.326 E59.59708
G1 X95.804 Y84.715 E59.62431
G1 X95.691 Y84.388 E59.63812
G1 X95.569 Y83.872 E59.65928
G1 X95.509 Y83.246 E59.68438
G1 X95.509 Y78.986 E59.85441
G1 X95.374 Y79.18 E59.86384
G1 X95.05 Y79.505 E59.88216
G1 X94.674 Y79.769 E59.9005
G1 X94.259 Y79.964 E59.9188
G1 X93.816 Y80.084 E59.93711
G1 X93.359 Y80.126 E59.95543
G1 X92.901 Y80.088 E59.97377
G1 X92.457 Y79.971 E59.9921
G1 X92.04 Y79.779 E60.01042
