;FLAVOR:Marlin
;TIME:25421
;Filament used: 19.4864m
;Layer height: 0.2
;MINX:37.018
;MINY:38.626
;MINZ:0.2
;MAXX:263.162
;MAXY:231.56
;MAXZ:9.4
;Generated with Cura_SteamEngine 4.8.0
M140 S60
M105
M190 S60
M104 S200
M105
M109 S200
M82 ;absolute extrusion mode
; -- START GCODE --
G21                     ;set units to millimetres
G90                     ;set to absolute positioning
M106 S0                 ;set fan speed to zero (turned off)
G28                     ;home all axis
M420 S1                 ;turn on mesh bed levelling if enabled in firmware
G92 E0                  ;zero the extruded length
G1 Z1 F1000             ;move up slightly
G1 X60.0 Z0 E9.0 F1000.0;intro line
G1 X100.0 E21.5 F1000.0 ;continue line
G92 E0                  ;zero the extruded length again
; -- end of START GCODE --
G92 E0
G92 E0
G1 F2700 E-8
;LAYER_COUNT:47
;LAYER:0
M107
G0 F3600 X40.228 Y41.062 Z0.2
;TYPE:SKIRT
G1 F2700 E0
G1 F1200 X40.623 Y40.709 E0.02114
G1 X41.044 Y40.41 E0.04175
G1 X41.966 Y39.83 E0.08523
G1 X42.379 Y39.599 E0.10411
G1 X42.913 Y39.374 E0.12724
G1 X43.948 Y39.012 E0.17101
G1 X44.371 Y38.886 E0.18862
G1 X44.972 Y38.778 E0.21299
G1 X46.085 Y38.654 E0.25769
G1 X46.59 Y38.626 E0.27788
G1 X186.575 Y38.626 E5.86498
G1 X187.082 Y38.654 E5.88525
G1 X188.181 Y38.777 E5.92938
G1 X188.78 Y38.885 E5.95368
G1 X189.202 Y39.01 E5.97124
G1 X190.241 Y39.373 E6.01517
G1 X190.776 Y39.599 E6.03835
G1 X191.186 Y39.829 E6.05711
G1 X192.11 Y40.41 E6.10068
G1 X192.528 Y40.706 E6.12112
G1 X192.924 Y41.059 E6.14229
G1 X193.7 Y41.834 E6.18606
G1 X194.055 Y42.231 E6.20732
G1 X194.356 Y42.655 E6.22807
G1 X194.935 Y43.577 E6.27153
G1 X195.164 Y43.987 E6.29027
G1 X195.39 Y44.522 E6.31345
G1 X195.753 Y45.561 E6.35738
G1 X195.878 Y45.983 E6.37494
G1 X195.985 Y46.577 E6.39903
G1 X196.109 Y47.675 E6.44314
G1 X196.138 Y48.187 E6.4636
G1 X196.137 Y143.269 E10.25853
G1 X196.475 Y143.044 E10.27474
G1 X197.018 Y142.779 E10.29885
G1 X197.591 Y142.588 E10.32296
G1 X198.183 Y142.474 E10.34702
G1 X198.743 Y142.44 E10.36941
G1 X258.461 Y142.44 E12.75289
G1 X259.063 Y142.48 E12.77697
G1 X259.655 Y142.599 E12.80107
G1 X260.226 Y142.795 E12.82516
G1 X260.766 Y143.065 E12.84926
G1 X261.265 Y143.404 E12.87334
G1 X261.685 Y143.776 E12.89573
G1 X261.826 Y143.917 E12.90369
G1 X262.224 Y144.371 E12.92779
G1 X262.558 Y144.873 E12.95185
G1 X262.823 Y145.416 E12.97597
G1 X263.014 Y145.989 E13.00007
G1 X263.128 Y146.581 E13.02414
G1 X263.162 Y147.141 E13.04653
G1 X263.162 Y226.859 E16.22825
G1 X263.122 Y227.461 E16.25233
G1 X263.003 Y228.053 E16.27643
G1 X262.807 Y228.624 E16.30052
G1 X262.537 Y229.164 E16.32462
G1 X262.198 Y229.663 E16.3487
G1 X261.826 Y230.083 E16.37109
G1 X261.685 Y230.224 E16.37905
G1 X261.231 Y230.622 E16.40315
G1 X260.729 Y230.956 E16.42721
G1 X260.186 Y231.221 E16.45133
G1 X259.613 Y231.412 E16.47543
G1 X259.021 Y231.526 E16.49949
G1 X258.461 Y231.56 E16.52189
G1 X198.743 Y231.56 E18.90536
G1 X198.141 Y231.52 E18.92944
G1 X197.549 Y231.401 E18.95354
G1 X196.978 Y231.205 E18.97764
G1 X196.438 Y230.935 E19.00173
G1 X195.939 Y230.596 E19.02581
G1 X195.519 Y230.224 E19.0482
G1 X195.378 Y230.083 E19.05616
G1 X194.98 Y229.629 E19.08026
G1 X194.646 Y229.127 E19.10433
G1 X194.381 Y228.584 E19.12844
G1 X194.19 Y228.011 E19.15255
G1 X194.076 Y227.419 E19.17661
G1 X194.042 Y226.859 E19.199
G1 X194.042 Y184.154 E20.90345
G1 X193.703 Y184.534 E20.92377
G1 X192.927 Y185.31 E20.96758
G1 X192.532 Y185.663 E20.98872
G1 X192.111 Y185.962 E21.00933
G1 X191.189 Y186.542 E21.0528
G1 X190.776 Y186.773 E21.07169
G1 X190.241 Y186.999 E21.09487
G1 X189.202 Y187.362 E21.1388
G1 X188.78 Y187.487 E21.15636
G1 X188.181 Y187.595 E21.18066
G1 X187.082 Y187.718 E21.22479
G1 X186.575 Y187.746 E21.24506
G1 X46.577 Y187.745 E26.83268
G1 X46.07 Y187.717 E26.85295
G1 X44.97 Y187.594 E26.89713
G1 X44.371 Y187.486 E26.92142
G1 X43.948 Y187.36 E26.93903
G1 X42.913 Y186.998 E26.9828
G1 X42.379 Y186.773 E27.00593
G1 X41.966 Y186.542 E27.02481
G1 X41.044 Y185.962 E27.06829
G1 X40.603 Y185.647 E27.08992
G1 X40.226 Y185.308 E27.11015
G1 X39.451 Y184.532 E27.15393
G1 X39.083 Y184.117 E27.17606
G1 X38.802 Y183.718 E27.19554
G1 X38.221 Y182.794 E27.2391
G1 X37.99 Y182.382 E27.25796
G1 X37.764 Y181.846 E27.28117
G1 X37.402 Y180.809 E27.32501
G1 X37.277 Y180.388 E27.34254
G1 X37.169 Y179.79 E27.36679
G1 X37.046 Y178.693 E27.41085
G1 X37.018 Y178.185 E27.43116
G1 X37.019 Y48.185 E32.61974
G1 X37.047 Y47.678 E32.64
G1 X37.17 Y46.578 E32.68418
G1 X37.278 Y45.979 E32.70847
G1 X37.403 Y45.557 E32.72604
G1 X37.764 Y44.524 E32.76972
G1 X37.99 Y43.989 E32.7929
G1 X38.221 Y43.577 E32.81175
G1 X38.802 Y42.653 E32.85531
G1 X39.098 Y42.235 E32.87575
G1 X39.453 Y41.837 E32.89704
G1 X40.228 Y41.062 E32.94078
G0 F3600 X40.567 Y41.401
G1 F1200 X40.923 Y41.084 E32.95981
G1 X41.3 Y40.816 E32.97827
G1 X42.222 Y40.236 E33.02175
G1 X42.593 Y40.029 E33.0387
G1 X43.071 Y39.827 E33.05941
G1 X44.106 Y39.465 E33.10318
G1 X44.487 Y39.352 E33.11904
G1 X45.025 Y39.255 E33.14086
G1 X46.138 Y39.131 E33.18555
G1 X46.59 Y39.106 E33.20362
G1 X186.575 Y39.106 E38.79073
G1 X187.029 Y39.131 E38.80887
G1 X188.128 Y39.254 E38.85301
G1 X188.664 Y39.351 E38.87475
G1 X189.044 Y39.463 E38.89056
G1 X190.083 Y39.826 E38.93449
G1 X190.562 Y40.029 E38.95525
G1 X190.931 Y40.235 E38.97212
G1 X191.855 Y40.816 E39.01568
G1 X192.23 Y41.083 E39.03406
G1 X192.585 Y41.398 E39.053
G1 X193.361 Y42.173 E39.09677
G1 X193.68 Y42.531 E39.11591
G1 X193.949 Y42.91 E39.13446
G1 X194.528 Y43.832 E39.17791
G1 X194.734 Y44.201 E39.19478
G1 X194.937 Y44.68 E39.21554
G1 X195.3 Y45.719 E39.25947
G1 X195.412 Y46.099 E39.27528
G1 X195.508 Y46.631 E39.29686
G1 X195.632 Y47.729 E39.34096
G1 X195.658 Y48.187 E39.35927
G1 X195.657 Y144.321 E43.19619
G1 X195.858 Y144.115 E43.20767
G1 X196.289 Y143.741 E43.23045
G1 X196.768 Y143.43 E43.25324
G1 X197.286 Y143.189 E43.27605
G1 X197.832 Y143.023 E43.29882
G1 X198.396 Y142.935 E43.32161
G1 X198.743 Y142.92 E43.33547
G1 X258.461 Y142.92 E45.71894
G1 X259.031 Y142.96 E45.74175
G1 X259.589 Y143.079 E45.76452
G1 X260.125 Y143.275 E45.7873
G1 X260.629 Y143.544 E45.8101
G1 X261.09 Y143.88 E45.83287
G1 X261.487 Y144.256 E45.85469
G1 X261.861 Y144.687 E45.87747
G1 X262.172 Y145.166 E45.90026
G1 X262.413 Y145.684 E45.92306
G1 X262.579 Y146.23 E45.94584
G1 X262.667 Y146.794 E45.96862
G1 X262.682 Y147.141 E45.98249
G1 X262.682 Y226.859 E49.1642
G1 X262.642 Y227.429 E49.18701
G1 X262.523 Y227.987 E49.20978
G1 X262.327 Y228.523 E49.23256
G1 X262.058 Y229.027 E49.25536
G1 X261.722 Y229.488 E49.27813
G1 X261.346 Y229.885 E49.29995
G1 X260.915 Y230.259 E49.32273
G1 X260.436 Y230.57 E49.34552
G1 X259.918 Y230.811 E49.36833
G1 X259.372 Y230.977 E49.3911
G1 X258.808 Y231.065 E49.41389
G1 X258.461 Y231.08 E49.42775
G1 X198.743 Y231.08 E51.81122
G1 X198.173 Y231.04 E51.83403
G1 X197.615 Y230.921 E51.8568
G1 X197.079 Y230.725 E51.87958
G1 X196.575 Y230.456 E51.90238
G1 X196.114 Y230.12 E51.92515
G1 X195.717 Y229.744 E51.94697
G1 X195.343 Y229.313 E51.96975
G1 X195.032 Y228.834 E51.99254
G1 X194.791 Y228.316 E52.01534
G1 X194.625 Y227.77 E52.03812
G1 X194.537 Y227.206 E52.0609
G1 X194.522 Y226.859 E52.07477
G1 X194.522 Y182.549 E53.84327
G1 X193.95 Y183.46 E53.88621
G1 X193.681 Y183.838 E53.90472
G1 X193.364 Y184.195 E53.92378
G1 X192.588 Y184.971 E53.96758
G1 X192.232 Y185.288 E53.98661
G1 X191.855 Y185.556 E54.00507
G1 X190.933 Y186.136 E54.04854
G1 X190.562 Y186.343 E54.0655
G1 X190.083 Y186.546 E54.08626
G1 X189.044 Y186.909 E54.13019
G1 X188.664 Y187.021 E54.146
G1 X188.128 Y187.118 E54.16774
G1 X187.029 Y187.241 E54.21188
G1 X186.575 Y187.266 E54.23003
G1 X46.577 Y187.265 E59.81765
G1 X46.124 Y187.24 E59.83576
G1 X45.024 Y187.117 E59.87993
G1 X44.487 Y187.02 E59.90171
G1 X44.106 Y186.907 E59.91757
G1 X43.071 Y186.545 E59.96134
G1 X42.593 Y186.343 E59.98205
G1 X42.222 Y186.136 E59.99901
G1 X41.3 Y185.556 E60.04248
G1 X40.903 Y185.272 E60.06196
G1 X40.565 Y184.969 E60.08008
G1 X39.79 Y184.193 E60.12385
G1 X39.46 Y183.819 E60.14376
G1 X39.208 Y183.463 E60.16117
G1 X38.627 Y182.539 E60.20473
G1 X38.42 Y182.168 E60.22169
G1 X38.217 Y181.688 E60.24249
G1 X37.855 Y180.651 E60.28633
G1 X37.743 Y180.272 E60.3021
G1 X37.646 Y179.737 E60.3238
G1 X37.523 Y178.64 E60.36786
G1 X37.498 Y178.185 E60.38605
G1 X37.499 Y48.185 E65.57463
G1 X37.524 Y47.732 E65.59273
G1 X37.647 Y46.632 E65.63691
G1 X37.744 Y46.095 E65.65869
G1 X37.856 Y45.715 E65.6745
G1 X38.217 Y44.682 E65.71818
G1 X38.42 Y44.203 E65.73894
G1 X38.627 Y43.832 E65.7559
G1 X39.208 Y42.908 E65.79946
G1 X39.475 Y42.533 E65.81783
G1 X39.792 Y42.176 E65.83689
G1 X40.567 Y41.401 E65.88063
G0 F3600 X40.906 Y41.74
G1 F1200 X41.555 Y41.223 E65.91375
G1 X42.477 Y40.643 E65.95723
G1 X43.229 Y40.28 E65.99055
G1 X44.264 Y39.918 E66.03432
G1 X45.078 Y39.732 E66.06764
G1 X46.191 Y39.608 E66.11234
G1 X46.59 Y39.586 E66.12829
G1 X186.575 Y39.586 E71.71539
G1 X186.975 Y39.608 E71.73138
G1 X188.074 Y39.731 E71.77552
G1 X188.571 Y39.822 E71.79569
G1 X188.885 Y39.916 E71.80877
G1 X189.924 Y40.279 E71.85269
G1 X190.675 Y40.641 E71.88597
G1 X191.599 Y41.222 E71.92953
G1 X192.246 Y41.738 E71.96256
G1 X193.022 Y42.513 E72.00633
G1 X193.543 Y43.165 E72.03964
G1 X194.122 Y44.087 E72.0831
G1 X194.484 Y44.839 E72.11641
G1 X194.847 Y45.878 E72.16034
G1 X195.031 Y46.685 E72.19337
G1 X195.155 Y47.783 E72.23747
G1 X195.178 Y48.187 E72.25362
G1 X195.177 Y146.041 E76.15919
G1 X195.356 Y145.584 E76.17878
G1 X195.624 Y145.119 E76.2002
G1 X196.056 Y144.595 E76.2273
G1 X196.197 Y144.454 E76.23526
G1 X196.604 Y144.105 E76.25666
G1 X197.058 Y143.819 E76.27808
G1 X197.549 Y143.604 E76.29947
G1 X198.067 Y143.464 E76.32089
G1 X198.743 Y143.4 E76.34799
G1 X258.461 Y143.4 E78.73146
G1 X258.996 Y143.44 E78.75287
G1 X259.519 Y143.559 E78.77428
G1 X260.018 Y143.754 E78.79567
G1 X260.483 Y144.022 E78.81709
G1 X261.007 Y144.454 E78.84419
G1 X261.148 Y144.595 E78.85215
G1 X261.497 Y145.002 E78.87355
G1 X261.783 Y145.456 E78.89496
G1 X261.998 Y145.947 E78.91636
G1 X262.138 Y146.465 E78.93777
G1 X262.202 Y147.141 E78.96488
G1 X262.202 Y226.859 E82.14659
G1 X262.162 Y227.394 E82.16801
G1 X262.043 Y227.917 E82.18941
G1 X261.848 Y228.416 E82.2108
G1 X261.58 Y228.881 E82.23222
G1 X261.148 Y229.405 E82.25932
G1 X261.007 Y229.546 E82.26728
G1 X260.6 Y229.895 E82.28868
G1 X260.146 Y230.181 E82.3101
G1 X259.655 Y230.396 E82.33149
G1 X259.137 Y230.536 E82.3529
G1 X258.461 Y230.6 E82.38001
G1 X198.743 Y230.6 E84.76348
G1 X198.208 Y230.56 E84.78489
G1 X197.685 Y230.441 E84.8063
G1 X197.186 Y230.246 E84.82768
G1 X196.721 Y229.978 E84.8491
G1 X196.197 Y229.546 E84.87621
G1 X196.056 Y229.405 E84.88417
G1 X195.707 Y228.998 E84.90557
G1 X195.421 Y228.544 E84.92698
G1 X195.206 Y228.053 E84.94838
G1 X195.066 Y227.535 E84.96979
G1 X195.002 Y226.859 E84.99689
G1 X195.002 Y179.849 E86.87316
G1 X194.847 Y180.492 E86.89956
G1 X194.485 Y181.529 E86.9434
G1 X194.123 Y182.281 E86.97671
G1 X193.543 Y183.205 E87.02025
G1 X193.025 Y183.856 E87.05346
G1 X192.249 Y184.632 E87.09726
G1 X191.6 Y185.149 E87.13038
G1 X190.678 Y185.729 E87.17385
G1 X189.924 Y186.093 E87.20727
G1 X188.885 Y186.456 E87.25119
G1 X188.074 Y186.641 E87.2844
G1 X186.975 Y186.764 E87.32853
G1 X186.575 Y186.786 E87.34452
G1 X46.577 Y186.785 E92.93214
G1 X46.177 Y186.763 E92.94813
G1 X45.077 Y186.64 E92.99231
G1 X44.58 Y186.549 E93.01248
G1 X44.264 Y186.454 E93.02565
G1 X43.229 Y186.092 E93.06941
G1 X42.477 Y185.729 E93.10274
G1 X41.555 Y185.149 E93.14621
G1 X40.905 Y184.63 E93.17941
G1 X40.13 Y183.854 E93.22318
G1 X39.614 Y183.207 E93.25621
G1 X39.033 Y182.283 E93.29978
G1 X38.67 Y181.529 E93.33318
G1 X38.308 Y180.492 E93.37701
G1 X38.123 Y179.683 E93.41014
G1 X38 Y178.586 E93.45419
G1 X37.978 Y178.185 E93.47022
G1 X37.979 Y48.185 E98.6588
G1 X38.001 Y47.785 E98.67479
G1 X38.124 Y46.685 E98.71897
G1 X38.215 Y46.188 E98.73914
G1 X38.31 Y45.873 E98.75227
G1 X38.671 Y44.84 E98.79594
G1 X39.033 Y44.088 E98.82925
G1 X39.614 Y43.164 E98.87282
G1 X40.131 Y42.515 E98.90593
G1 X40.906 Y41.74 E98.94968
G0 F3600 X41.246 Y42.08
G1 F1200 X41.811 Y41.629 E98.97853
G1 X42.733 Y41.049 E99.02201
G1 X43.388 Y40.733 E99.05103
G1 X44.423 Y40.371 E99.09479
G1 X45.132 Y40.209 E99.12382
G1 X46.245 Y40.085 E99.16852
G1 X46.59 Y40.066 E99.18231
G1 X186.575 Y40.066 E104.76941
G1 X186.922 Y40.085 E104.78328
G1 X188.021 Y40.208 E104.82742
G1 X188.727 Y40.37 E104.85633
G1 X189.766 Y40.733 E104.90026
G1 X190.42 Y41.048 E104.92923
G1 X191.344 Y41.629 E104.97279
G1 X191.907 Y42.077 E105.00151
G1 X192.683 Y42.852 E105.04528
G1 X193.136 Y43.421 E105.07431
G1 X193.715 Y44.343 E105.11777
G1 X194.03 Y44.997 E105.14674
G1 X194.393 Y46.036 E105.19066
G1 X194.554 Y46.739 E105.21945
G1 X194.678 Y47.837 E105.26355
G1 X194.698 Y48.187 E105.27754
G1 X194.697 Y178.196 E110.46648
G1 X194.677 Y178.547 E110.48052
G1 X194.554 Y179.633 E110.52414
G1 X194.394 Y180.334 E110.55284
G1 X194.032 Y181.371 E110.59667
G1 X193.717 Y182.026 E110.62568
G1 X193.137 Y182.95 E110.66922
G1 X192.685 Y183.516 E110.69813
G1 X191.909 Y184.292 E110.74193
G1 X191.344 Y184.743 E110.77079
G1 X190.422 Y185.323 E110.81426
G1 X189.766 Y185.639 E110.84332
G1 X188.727 Y186.002 E110.88725
G1 X188.021 Y186.164 E110.91616
G1 X186.922 Y186.287 E110.9603
G1 X186.575 Y186.306 E110.97417
G1 X46.577 Y186.305 E116.56179
G1 X46.23 Y186.286 E116.57566
G1 X45.13 Y186.163 E116.61984
G1 X44.423 Y186.001 E116.64879
G1 X43.388 Y185.639 E116.69255
G1 X42.733 Y185.323 E116.72158
G1 X41.811 Y184.743 E116.76505
G1 X41.244 Y184.291 E116.79399
G1 X40.469 Y183.515 E116.83777
G1 X40.021 Y182.952 E116.86648
G1 X39.44 Y182.028 E116.91005
G1 X39.123 Y181.371 E116.93916
G1 X38.761 Y180.334 E116.983
G1 X38.6 Y179.63 E117.01182
G1 X38.477 Y178.533 E117.05588
G1 X38.458 Y178.185 E117.06979
G1 X38.459 Y48.185 E122.25837
G1 X38.478 Y47.838 E122.27224
G1 X38.601 Y46.738 E122.31642
G1 X38.763 Y46.032 E122.34533
G1 X39.124 Y44.999 E122.389
G1 X39.44 Y44.343 E122.41807
G1 X40.021 Y43.419 E122.46163
G1 X40.471 Y42.855 E122.49043
G1 X41.246 Y42.08 E122.53417
G0 F3600 X41.585 Y42.419
G1 F1200 X42.066 Y42.035 E122.55874
G1 X42.988 Y41.455 E122.60221
G1 X43.546 Y41.186 E122.62693
G1 X44.581 Y40.824 E122.6707
G1 X45.185 Y40.686 E122.69543
G1 X46.298 Y40.562 E122.74012
G1 X46.59 Y40.546 E122.75179
G1 X186.575 Y40.546 E128.3389
G1 X186.869 Y40.562 E128.35065
G1 X187.968 Y40.685 E128.39479
G1 X188.569 Y40.823 E128.4194
G1 X189.608 Y41.186 E128.46333
G1 X190.164 Y41.454 E128.48796
G1 X191.088 Y42.035 E128.53152
G1 X191.568 Y42.417 E128.55601
G1 X192.344 Y43.192 E128.59978
G1 X192.73 Y43.676 E128.62449
G1 X193.309 Y44.598 E128.66794
G1 X193.577 Y45.155 E128.69261
G1 X193.94 Y46.194 E128.73654
G1 X194.077 Y46.793 E128.76106
G1 X194.201 Y47.891 E128.80517
G1 X194.218 Y48.187 E128.817
G1 X194.217 Y178.196 E134.00594
G1 X194.2 Y178.493 E134.01781
G1 X194.077 Y179.579 E134.06144
G1 X193.94 Y180.176 E134.08588
G1 X193.578 Y181.213 E134.12972
G1 X193.31 Y181.771 E134.15443
G1 X192.73 Y182.695 E134.19797
G1 X192.346 Y183.177 E134.22257
G1 X191.57 Y183.953 E134.26637
G1 X191.089 Y184.337 E134.29093
G1 X190.167 Y184.917 E134.33441
G1 X189.608 Y185.186 E134.35917
G1 X188.569 Y185.549 E134.40309
G1 X187.968 Y185.687 E134.4277
G1 X186.869 Y185.81 E134.47184
G1 X186.575 Y185.826 E134.48359
G1 X46.577 Y185.825 E140.07122
G1 X46.284 Y185.809 E140.08293
G1 X45.184 Y185.686 E140.1271
G1 X44.581 Y185.548 E140.15179
G1 X43.546 Y185.186 E140.19556
G1 X42.988 Y184.917 E140.22028
G1 X42.066 Y184.337 E140.26376
G1 X41.584 Y183.952 E140.28838
G1 X40.809 Y183.176 E140.33215
G1 X40.427 Y182.696 E140.35663
G1 X39.846 Y181.772 E140.4002
G1 X39.577 Y181.213 E140.42496
G1 X39.215 Y180.176 E140.46879
G1 X39.077 Y179.576 E140.49337
G1 X38.954 Y178.479 E140.53743
G1 X38.938 Y178.185 E140.54918
G1 X38.939 Y48.185 E145.73776
G1 X38.955 Y47.892 E145.74947
G1 X39.078 Y46.792 E145.79365
G1 X39.216 Y46.19 E145.8183
G1 X39.577 Y45.157 E145.86197
G1 X39.846 Y44.599 E145.88669
G1 X40.427 Y43.675 E145.93026
G1 X40.81 Y43.194 E145.9548
G1 X41.585 Y42.419 E145.99854
G0 F3600 X41.925 Y42.759
G1 F1200 X42.322 Y42.442 E146.01882
G1 X43.244 Y41.862 E146.06229
