;FLAVOR:Marlin
;TIME:2636
;Filament used: 2.07679m
;Layer height: 0.2
;MINX:93.59
;MINY:134.59
;MINZ:0.2
;MAXX:206.411
;MAXY:165.411
;MAXZ:10
;Generated with Cura_SteamEngine 4.8.0
M140 S60
M105
M190 S60
M104 S200
M105
M109 S200
M82 ;absolute extrusion mode
; -- START GCODE --
G21                     ;set units to millimetres
G90                     ;set to absolute positioning
M106 S0                 ;set fan speed to zero (turned off)
G28                     ;home all axis
M420 S1                 ;turn on mesh bed levelling if enabled in firmware
G92 E0                  ;zero the extruded length
G1 Z1 F1000             ;move up slightly
G1 X60.0 Z0 E9.0 F1000.0;intro line
G1 X100.0 E21.5 F1000.0 ;continue line
G92 E0                  ;zero the extruded length again
; -- end of START GCODE --
G92 E0
G92 E0
G1 F2700 E-8
;LAYER_COUNT:50
;LAYER:0
M107
G0 F3600 X95.521 Y135.528 Z0.2
;TYPE:SKIRT
G1 F2700 E0
G1 F1200 X96.023 Y135.194 E0.02407
G1 X96.566 Y134.929 E0.04818
G1 X97.139 Y134.738 E0.07229
G1 X97.731 Y134.624 E0.09635
G1 X98.291 Y134.59 E0.11874
G1 X201.709 Y134.59 E4.24638
G1 X202.311 Y134.63 E4.27046
G1 X202.903 Y134.749 E4.29456
G1 X203.474 Y134.945 E4.31865
G1 X204.014 Y135.215 E4.34275
G1 X204.513 Y135.554 E4.36683
G1 X204.933 Y135.926 E4.38922
G1 X205.074 Y136.067 E4.39718
G1 X205.472 Y136.521 E4.42128
G1 X205.806 Y137.023 E4.44534
G1 X206.071 Y137.566 E4.46946
G1 X206.262 Y138.139 E4.49356
G1 X206.376 Y138.731 E4.51763
G1 X206.41 Y139.291 E4.54002
G1 X206.411 Y159.488 E5.34612
G1 X206.345 Y160.258 E5.37697
G1 X206.272 Y160.684 E5.39422
G1 X206.131 Y161.271 E5.41831
G1 X205.922 Y161.816 E5.44161
G1 X205.782 Y162.121 E5.45501
G1 X205.495 Y162.652 E5.4791
G1 X205.158 Y163.117 E5.50202
G1 X204.939 Y163.383 E5.51577
G1 X204.526 Y163.823 E5.53985
G1 X204.105 Y164.17 E5.56163
G1 X203.832 Y164.369 E5.57511
G1 X203.322 Y164.691 E5.59919
G1 X202.785 Y164.939 E5.62279
G1 X202.463 Y165.063 E5.63657
G1 X201.886 Y165.243 E5.66069
G1 X201.062 Y165.374 E5.69399
G1 X200.491 Y165.41 E5.71683
G1 X182.641 Y165.411 E6.42926
G1 X182.039 Y165.371 E6.45334
G1 X181.447 Y165.252 E6.47744
G1 X180.876 Y165.056 E6.50153
G1 X180.336 Y164.786 E6.52563
G1 X179.837 Y164.447 E6.54971
G1 X179.417 Y164.075 E6.5721
G1 X179.276 Y163.934 E6.58006
G1 X178.878 Y163.48 E6.60416
G1 X178.544 Y162.978 E6.62822
G1 X178.279 Y162.435 E6.65234
G1 X178.088 Y161.862 E6.67644
G1 X177.974 Y161.27 E6.70051
G1 X177.94 Y160.71 E6.7229
G1 X177.94 Y151.06 E7.10805
G1 X122.06 Y151.06 E9.33834
G1 X122.06 Y160.709 E9.72345
G1 X122.02 Y161.311 E9.74753
G1 X121.901 Y161.903 E9.77163
G1 X121.705 Y162.474 E9.79573
G1 X121.435 Y163.014 E9.81983
G1 X121.096 Y163.513 E9.8439
G1 X120.724 Y163.933 E9.8663
G1 X120.583 Y164.074 E9.87426
G1 X120.129 Y164.472 E9.89835
G1 X119.627 Y164.806 E9.92242
G1 X119.084 Y165.071 E9.94653
G1 X118.511 Y165.262 E9.97064
G1 X117.919 Y165.376 E9.9947
G1 X117.359 Y165.41 E10.01709
G1 X99.51 Y165.41 E10.72949
G1 X98.745 Y165.345 E10.76013
G1 X98.322 Y165.273 E10.77725
G1 X97.735 Y165.133 E10.80134
G1 X97.19 Y164.925 E10.82462
G1 X96.884 Y164.785 E10.83805
G1 X96.353 Y164.498 E10.86214
G1 X95.883 Y164.158 E10.8853
G1 X95.617 Y163.939 E10.89905
G1 X95.177 Y163.526 E10.92313
G1 X94.83 Y163.105 E10.94491
G1 X94.631 Y162.832 E10.95839
G1 X94.309 Y162.322 E10.98247
G1 X94.063 Y161.792 E11.00579
G1 X93.938 Y161.469 E11.01961
G1 X93.758 Y160.893 E11.0437
G1 X93.666 Y160.385 E11.0643
G1 X93.625 Y160.055 E11.07757
G1 X93.59 Y159.493 E11.10005
G1 X93.59 Y139.291 E11.90635
G1 X93.63 Y138.689 E11.93043
G1 X93.749 Y138.097 E11.95453
G1 X93.945 Y137.526 E11.97863
G1 X94.215 Y136.986 E12.00272
G1 X94.554 Y136.487 E12.0268
G1 X94.926 Y136.067 E12.0492
G1 X95.067 Y135.926 E12.05715
G1 X95.521 Y135.528 E12.08125
G0 F3600 X95.837 Y135.891
G1 F1200 X96.316 Y135.58 E12.10405
G1 X96.834 Y135.339 E12.12685
G1 X97.38 Y135.173 E12.14962
G1 X97.944 Y135.085 E12.17241
G1 X98.291 Y135.07 E12.18627
G1 X201.709 Y135.07 E16.31391
G1 X202.279 Y135.11 E16.33671
G1 X202.837 Y135.229 E16.35948
G1 X203.373 Y135.425 E16.38226
G1 X203.877 Y135.694 E16.40506
G1 X204.338 Y136.03 E16.42783
G1 X204.735 Y136.406 E16.44966
G1 X205.109 Y136.837 E16.47243
G1 X205.42 Y137.316 E16.49523
G1 X205.661 Y137.834 E16.51803
G1 X205.827 Y138.38 E16.5408
G1 X205.915 Y138.944 E16.56359
G1 X205.93 Y139.291 E16.57745
G1 X205.931 Y159.488 E17.38356
G1 X205.872 Y160.177 E17.41116
G1 X205.799 Y160.603 E17.42841
G1 X205.664 Y161.158 E17.4512
G1 X205.346 Y161.921 E17.4842
G1 X205.072 Y162.422 E17.50699
G1 X204.569 Y163.078 E17.53998
G1 X204.176 Y163.493 E17.56279
G1 X203.549 Y163.981 E17.5945
G1 X203.066 Y164.284 E17.61726
G1 X202.29 Y164.615 E17.65093
G1 X201.744 Y164.783 E17.67373
G1 X201.002 Y164.898 E17.7037
G1 X200.491 Y164.93 E17.72414
G1 X182.641 Y164.931 E18.43657
G1 X182.072 Y164.891 E18.45933
G1 X181.513 Y164.772 E18.48214
G1 X180.977 Y164.576 E18.50492
G1 X180.473 Y164.307 E18.52772
G1 X180.012 Y163.971 E18.55049
G1 X179.615 Y163.595 E18.57232
G1 X179.241 Y163.164 E18.59509
G1 X178.93 Y162.685 E18.61789
G1 X178.689 Y162.167 E18.64069
G1 X178.523 Y161.621 E18.66347
G1 X178.435 Y161.057 E18.68625
G1 X178.42 Y160.71 E18.70011
G1 X178.42 Y150.58 E19.10442
G1 X121.58 Y150.58 E21.37303
G1 X121.58 Y160.709 E21.7773
G1 X121.54 Y161.279 E21.8001
G1 X121.421 Y161.837 E21.82288
G1 X121.225 Y162.373 E21.84565
G1 X120.956 Y162.877 E21.86846
G1 X120.62 Y163.338 E21.89122
G1 X120.244 Y163.735 E21.91305
G1 X119.813 Y164.109 E21.93582
G1 X119.334 Y164.42 E21.95862
G1 X118.816 Y164.661 E21.98142
G1 X118.27 Y164.827 E22.0042
G1 X117.706 Y164.915 E22.02698
G1 X117.359 Y164.93 E22.04084
G1 X99.51 Y164.93 E22.75323
G1 X98.825 Y164.872 E22.78067
G1 X98.402 Y164.8 E22.7978
G1 X97.848 Y164.665 E22.82056
G1 X97.084 Y164.348 E22.85357
G1 X96.582 Y164.075 E22.87638
G1 X95.922 Y163.569 E22.90957
G1 X95.507 Y163.176 E22.93238
G1 X95.019 Y162.549 E22.96409
G1 X94.716 Y162.066 E22.98685
G1 X94.386 Y161.296 E23.02029
G1 X94.218 Y160.75 E23.04309
G1 X94.101 Y159.996 E23.07354
G1 X94.07 Y159.493 E23.09365
G1 X94.07 Y139.291 E23.89996
G1 X94.11 Y138.721 E23.92277
G1 X94.229 Y138.163 E23.94554
G1 X94.425 Y137.627 E23.96832
G1 X94.694 Y137.123 E23.99112
G1 X95.03 Y136.662 E24.01389
G1 X95.406 Y136.265 E24.03571
G1 X95.837 Y135.891 E24.05848
G0 F3600 X96.152 Y136.255
G1 F1200 X96.606 Y135.969 E24.0799
G1 X97.097 Y135.754 E24.10129
G1 X97.615 Y135.614 E24.12271
G1 X98.291 Y135.55 E24.14981
G1 X201.709 Y135.55 E28.27745
G1 X202.244 Y135.59 E28.29886
G1 X202.767 Y135.709 E28.32027
G1 X203.266 Y135.904 E28.34165
G1 X203.731 Y136.172 E28.36307
G1 X204.255 Y136.604 E28.39018
G1 X204.396 Y136.745 E28.39813
G1 X204.745 Y137.152 E28.41953
G1 X205.031 Y137.606 E28.44095
G1 X205.246 Y138.097 E28.46234
G1 X205.386 Y138.615 E28.48376
G1 X205.45 Y139.291 E28.51086
G1 X205.451 Y159.488 E29.31697
G1 X205.399 Y160.096 E29.34132
G1 X205.326 Y160.522 E29.35857
G1 X205.197 Y161.042 E29.37996
G1 X204.91 Y161.721 E29.40938
G1 X204.65 Y162.19 E29.43078
G1 X204.198 Y162.773 E29.46022
G1 X203.827 Y163.161 E29.48165
G1 X203.267 Y163.593 E29.50988
G1 X202.811 Y163.876 E29.5313
G1 X202.118 Y164.168 E29.56131
G1 X201.604 Y164.322 E29.58273
G1 X200.941 Y164.422 E29.60949
G1 X200.491 Y164.45 E29.62748
G1 X182.641 Y164.451 E30.33992
G1 X182.106 Y164.411 E30.36133
G1 X181.583 Y164.292 E30.38274
G1 X181.084 Y164.097 E30.40412
G1 X180.619 Y163.83 E30.42552
G1 X180.095 Y163.397 E30.45265
G1 X179.954 Y163.256 E30.46061
G1 X179.605 Y162.849 E30.48201
G1 X179.319 Y162.395 E30.50342
G1 X179.104 Y161.904 E30.52482
G1 X178.964 Y161.386 E30.54623
G1 X178.9 Y160.71 E30.57333
G1 X178.9 Y150.1 E30.9968
G1 X121.1 Y150.1 E33.30373
G1 X121.1 Y160.709 E33.72715
G1 X121.06 Y161.244 E33.74857
G1 X120.941 Y161.767 E33.76997
G1 X120.746 Y162.266 E33.79136
G1 X120.478 Y162.731 E33.81278
G1 X120.046 Y163.255 E33.83988
G1 X119.905 Y163.396 E33.84784
G1 X119.498 Y163.745 E33.86924
G1 X119.044 Y164.031 E33.89066
G1 X118.553 Y164.246 E33.91205
G1 X118.035 Y164.386 E33.93347
G1 X117.359 Y164.45 E33.96057
G1 X99.51 Y164.45 E34.67296
G1 X98.906 Y164.399 E34.69715
G1 X98.483 Y164.327 E34.71428
G1 X97.962 Y164.198 E34.7357
G1 X97.283 Y163.912 E34.76511
G1 X96.814 Y163.653 E34.78649
G1 X96.227 Y163.198 E34.81613
G1 X95.839 Y162.827 E34.83756
G1 X95.407 Y162.267 E34.86579
G1 X95.124 Y161.811 E34.88721
G1 X94.834 Y161.122 E34.91704
G1 X94.678 Y160.609 E34.93844
G1 X94.577 Y159.937 E34.96556
G1 X94.55 Y159.493 E34.98332
G1 X94.55 Y139.291 E35.78962
G1 X94.59 Y138.756 E35.81104
G1 X94.709 Y138.233 E35.83244
G1 X94.904 Y137.734 E35.85383
G1 X95.172 Y137.269 E35.87525
G1 X95.604 Y136.745 E35.90235
G1 X95.745 Y136.604 E35.91031
G1 X96.152 Y136.255 E35.93171
G0 F3600 X96.465 Y136.62
G1 F1200 X96.892 Y136.361 E35.95164
G1 X97.354 Y136.174 E35.97154
G1 X97.841 Y136.063 E35.99147
G1 X98.291 Y136.03 E36.00948
G1 X201.709 Y136.03 E40.13712
G1 X202.207 Y136.07 E40.15706
G1 X202.691 Y136.189 E40.17695
G1 X203.151 Y136.383 E40.19687
G1 X203.574 Y136.649 E40.21682
G1 X204.056 Y137.085 E40.24276
G1 X204.38 Y137.465 E40.26269
G1 X204.639 Y137.892 E40.28262
G1 X204.826 Y138.354 E40.30251
G1 X204.937 Y138.841 E40.32245
G1 X204.97 Y139.291 E40.34046
G1 X204.971 Y159.488 E41.14657
G1 X204.926 Y160.015 E41.16768
G1 X204.73 Y160.925 E41.20483
G1 X204.474 Y161.521 E41.23072
G1 X204.047 Y162.202 E41.2628
G1 X203.481 Y162.827 E41.29645
G1 X202.984 Y163.205 E41.32137
G1 X202.558 Y163.466 E41.34131
G1 X201.945 Y163.72 E41.3678
G1 X201.214 Y163.903 E41.39787
G1 X200.491 Y163.97 E41.42685
G1 X182.641 Y163.971 E42.13929
G1 X182.144 Y163.931 E42.15919
G1 X181.659 Y163.812 E42.17912
G1 X181.199 Y163.618 E42.19904
G1 X180.776 Y163.352 E42.21899
G1 X180.294 Y162.916 E42.24493
G1 X179.97 Y162.536 E42.26486
G1 X179.711 Y162.109 E42.28479
G1 X179.524 Y161.647 E42.30468
G1 X179.413 Y161.16 E42.32462
G1 X179.38 Y160.71 E42.34263
G1 X179.38 Y149.62 E42.78525
G1 X120.62 Y149.62 E45.13049
G1 X120.62 Y160.709 E45.57308
G1 X120.58 Y161.207 E45.59302
G1 X120.461 Y161.691 E45.61291
G1 X120.267 Y162.151 E45.63284
G1 X120.001 Y162.574 E45.65278
G1 X119.565 Y163.056 E45.67872
G1 X119.185 Y163.38 E45.69865
G1 X118.758 Y163.639 E45.71859
G1 X118.296 Y163.826 E45.73848
G1 X117.809 Y163.937 E45.75841
G1 X117.359 Y163.97 E45.77642
G1 X99.51 Y163.97 E46.48881
G1 X98.986 Y163.926 E46.5098
G1 X98.08 Y163.731 E46.54679
G1 X97.483 Y163.475 E46.57272
G1 X96.798 Y163.047 E46.60495
G1 X96.173 Y162.481 E46.63861
G1 X95.795 Y161.984 E46.66353
G1 X95.406 Y161.272 E46.69591
G1 X95.139 Y160.471 E46.72961
G1 X95.054 Y159.878 E46.75352
G1 X95.03 Y159.493 E46.76892
G1 X95.03 Y139.291 E47.57522
G1 X95.07 Y138.793 E47.59516
G1 X95.189 Y138.309 E47.61506
G1 X95.383 Y137.849 E47.63498
G1 X95.649 Y137.426 E47.65492
G1 X96.085 Y136.944 E47.68086
G1 X96.465 Y136.62 E47.7008
G0 F3600 X96.776 Y136.988
G1 F1200 X97.173 Y136.758 E47.71911
G1 X97.605 Y136.601 E47.73745
G1 X98.291 Y136.51 E47.76507
G1 X201.709 Y136.51 E51.89271
G1 X202.166 Y136.55 E51.91102
G1 X202.61 Y136.668 E51.92935
G1 X203.026 Y136.862 E51.94767
G1 X203.576 Y137.283 E51.97532
G1 X204.012 Y137.776 E52.00159
G1 X204.242 Y138.173 E52.0199
G1 X204.399 Y138.605 E52.03824
G1 X204.49 Y139.291 E52.06586
G1 X204.491 Y159.488 E52.87197
G1 X204.38 Y160.36 E52.90705
G1 X204.177 Y161.015 E52.93442
G1 X204.037 Y161.32 E52.94782
G1 X203.676 Y161.897 E52.97498
G1 X203.457 Y162.163 E52.98874
G1 X202.974 Y162.618 E53.01522
G1 X202.308 Y163.055 E53.04701
G1 X201.773 Y163.272 E53.07005
G1 X201.154 Y163.427 E53.09552
G1 X200.491 Y163.49 E53.1221
G1 X182.641 Y163.491 E53.83454
G1 X182.184 Y163.451 E53.85285
G1 X181.74 Y163.333 E53.87118
G1 X181.324 Y163.139 E53.8895
G1 X180.774 Y162.718 E53.91715
G1 X180.338 Y162.225 E53.94341
G1 X180.108 Y161.828 E53.96173
G1 X179.951 Y161.396 E53.98007
G1 X179.86 Y160.71 E54.00769
G1 X179.86 Y149.14 E54.46948
G1 X120.14 Y149.14 E56.85303
G1 X120.14 Y160.709 E57.31477
G1 X120.1 Y161.166 E57.33308
G1 X119.982 Y161.61 E57.35142
G1 X119.788 Y162.026 E57.36974
G1 X119.367 Y162.576 E57.39738
G1 X118.874 Y163.012 E57.42365
G1 X118.477 Y163.242 E57.44196
G1 X118.045 Y163.399 E57.46031
G1 X117.359 Y163.49 E57.48793
G1 X99.51 Y163.49 E58.20032
G1 X98.644 Y163.381 E58.23516
G1 X97.989 Y163.179 E58.26251
G1 X97.683 Y163.039 E58.27595
G1 X97.103 Y162.676 E58.30325
G1 X96.837 Y162.457 E58.31701
G1 X96.382 Y161.974 E58.34349
G1 X96.183 Y161.701 E58.35697
G1 X95.854 Y161.099 E58.38436
G1 X95.729 Y160.776 E58.39818
G1 X95.571 Y160.148 E58.42402
G1 X95.51 Y159.493 E58.45028
G1 X95.51 Y139.291 E59.25659
G1 X95.55 Y138.834 E59.2749
G1 X95.668 Y138.39 E59.29323
G1 X95.862 Y137.974 E59.31155
G1 X96.283 Y137.424 E59.3392
G1 X96.776 Y136.988 E59.36546
G0 F3600 X97.084 Y137.359
G1 F1200 X97.449 Y137.161 E59.38204
G1 X97.845 Y137.036 E59.39861
G1 X98.291 Y136.99 E59.41651
G1 X201.709 Y136.99 E63.54414
G1 X202.122 Y137.03 E63.5607
G1 X202.52 Y137.148 E63.57727
G1 X202.888 Y137.34 E63.59384
G1 X203.377 Y137.764 E63.61967
G1 X203.641 Y138.084 E63.63623
G1 X203.839 Y138.449 E63.6528
G1 X203.964 Y138.845 E63.66937
G1 X204.01 Y139.291 E63.68727
G1 X204.011 Y159.488 E64.49338
G1 X203.907 Y160.279 E64.52522
G1 X203.741 Y160.815 E64.54761
G1 X203.601 Y161.12 E64.56101
G1 X203.306 Y161.592 E64.58322
G1 X203.087 Y161.858 E64.59698
G1 X202.691 Y162.23 E64.61866
G1 X202.418 Y162.429 E64.63214
G1 X201.922 Y162.7 E64.6547
G1 X201.6 Y162.824 E64.66847
G1 X201.094 Y162.951 E64.6893
G1 X200.491 Y163.01 E64.71348
G1 X182.641 Y163.011 E65.42591
G1 X182.228 Y162.971 E65.44247
G1 X181.83 Y162.853 E65.45904
G1 X181.462 Y162.661 E65.47561
G1 X180.973 Y162.237 E65.50144
G1 X180.709 Y161.917 E65.518
G1 X180.511 Y161.552 E65.53457
G1 X180.386 Y161.156 E65.55114
G1 X180.34 Y160.71 E65.56904
G1 X180.34 Y148.66 E66.04998
G1 X119.66 Y148.66 E68.47185
G1 X119.66 Y160.709 E68.95275
G1 X119.62 Y161.122 E68.96931
G1 X119.502 Y161.52 E68.98588
G1 X119.31 Y161.888 E69.00245
G1 X118.886 Y162.377 E69.02828
G1 X118.566 Y162.641 E69.04484
G1 X118.201 Y162.839 E69.06141
G1 X117.805 Y162.964 E69.07798
G1 X117.359 Y163.01 E69.09588
G1 X99.51 Y163.01 E69.80827
G1 X98.725 Y162.907 E69.83987
G1 X98.188 Y162.742 E69.86229
G1 X97.882 Y162.602 E69.87572
G1 X97.408 Y162.306 E69.89803
G1 X97.142 Y162.087 E69.91178
G1 X96.77 Y161.691 E69.93346
G1 X96.571 Y161.418 E69.94695
G1 X96.302 Y160.926 E69.96933
G1 X96.177 Y160.603 E69.98315
G1 X96.047 Y160.089 E70.00431
G1 X95.99 Y159.493 E70.02821
G1 X95.99 Y139.291 E70.83451
G1 X96.03 Y138.878 E70.85108
G1 X96.148 Y138.48 E70.86764
G1 X96.34 Y138.112 E70.88421
G1 X96.764 Y137.623 E70.91004
G1 X97.084 Y137.359 E70.9266
G0 F3600 X97.389 Y137.733
G1 F1200 X97.717 Y137.571 E70.9412
G1 X98.291 Y137.47 E70.96446
G1 X201.709 Y137.47 E75.0921
G1 X202.073 Y137.51 E75.10671
G1 X202.419 Y137.628 E75.1213
G1 X202.897 Y137.962 E75.14458
G1 X203.267 Y138.389 E75.16713
G1 X203.429 Y138.717 E75.18173
G1 X203.53 Y139.291 E75.20499
G1 X203.531 Y159.488 E76.0111
G1 X203.434 Y160.198 E76.0397
G1 X203.165 Y160.92 E76.07045
G1 X202.716 Y161.553 E76.10142
G1 X202.136 Y162.042 E76.1317
G1 X201.75 Y162.252 E76.14924
G1 X201.034 Y162.475 E76.17917
G1 X200.491 Y162.53 E76.20096
G1 X182.641 Y162.531 E76.91339
G1 X182.277 Y162.491 E76.928
G1 X181.931 Y162.373 E76.94259
G1 X181.453 Y162.039 E76.96587
G1 X181.083 Y161.612 E76.98842
G1 X180.921 Y161.284 E77.00302
G1 X180.82 Y160.71 E77.02628
G1 X180.82 Y148.18 E77.52638
G1 X119.18 Y148.18 E79.98657
G1 X119.18 Y160.709 E80.48663
G1 X119.14 Y161.073 E80.50124
G1 X119.022 Y161.419 E80.51583
G1 X118.688 Y161.897 E80.53911
G1 X118.261 Y162.267 E80.56166
G1 X117.933 Y162.429 E80.57626
G1 X117.359 Y162.53 E80.59952
G1 X99.51 Y162.53 E81.31191
G1 X98.805 Y162.434 E81.34031
G1 X98.082 Y162.166 E81.37108
G1 X97.447 Y161.716 E81.40215
G1 X96.958 Y161.136 E81.43242
G1 X96.624 Y160.429 E81.46363
G1 X96.483 Y159.7 E81.49327
G1 X96.47 Y159.493 E81.50155
G1 X96.47 Y139.291 E82.30785
G1 X96.51 Y138.927 E82.32247
G1 X96.628 Y138.581 E82.33706
G1 X96.962 Y138.103 E82.36033
G1 X97.389 Y137.733 E82.38288
G0 F3600 X97.687 Y138.113
G1 F1200 X97.972 Y137.993 E82.39522
G1 X98.291 Y137.95 E82.40807
