;FLAVOR:Marlin
;TIME:7543
;Filament used: 5.74696m
;Layer height: 0.2
;MINX:93.567
;MINY:85.213
;MINZ:0.2
;MAXX:212.91
;MAXY:181.009
;MAXZ:10
;Generated with Cura_SteamEngine 4.8.0
M140 S60
M105
M190 S60
M104 S200
M105
M109 S200
M82 ;absolute extrusion mode
; -- START GCODE --
G21                     ;set units to millimetres
G90                     ;set to absolute positioning
M106 S0                 ;set fan speed to zero (turned off)
G28                     ;home all axis
M420 S1                 ;turn on mesh bed levelling if enabled in firmware
G92 E0                  ;zero the extruded length
G1 Z1 F1000             ;move up slightly
G1 X60.0 Z0 E9.0 F1000.0;intro line
G1 X100.0 E21.5 F1000.0 ;continue line
G92 E0                  ;zero the extruded length again
; -- end of START GCODE --
G92 E0
G92 E0
G1 F2700 E-8
;LAYER_COUNT:50
;LAYER:0
M107
G0 F3600 X101.053 Y87.11 Z0.2
;TYPE:SKIRT
G1 F2700 E0
G1 F1200 X101.425 Y86.69 E0.02239
G1 X101.566 Y86.549 E0.03035
G1 X102.02 Y86.151 E0.05445
G1 X102.522 Y85.817 E0.07851
G1 X103.065 Y85.552 E0.10263
G1 X103.638 Y85.361 E0.12674
G1 X104.23 Y85.247 E0.1508
G1 X104.79 Y85.213 E0.17319
G1 X208.208 Y85.213 E4.30083
G1 X208.81 Y85.253 E4.32491
G1 X209.402 Y85.372 E4.34901
G1 X209.973 Y85.568 E4.3731
G1 X210.513 Y85.838 E4.3972
G1 X211.012 Y86.177 E4.42128
G1 X211.432 Y86.549 E4.44367
G1 X211.573 Y86.69 E4.45163
G1 X211.971 Y87.144 E4.47572
G1 X212.305 Y87.646 E4.49979
G1 X212.57 Y88.189 E4.52391
G1 X212.761 Y88.762 E4.54801
G1 X212.875 Y89.354 E4.57207
G1 X212.909 Y89.914 E4.59447
G1 X212.91 Y110.111 E5.40057
G1 X212.844 Y110.881 E5.43142
G1 X212.771 Y111.307 E5.44867
G1 X212.63 Y111.894 E5.47276
G1 X212.421 Y112.439 E5.49606
G1 X212.281 Y112.744 E5.50945
G1 X211.994 Y113.275 E5.53354
G1 X211.657 Y113.74 E5.55647
G1 X211.438 Y114.006 E5.57022
G1 X211.025 Y114.446 E5.5943
G1 X210.602 Y114.795 E5.61619
G1 X210.33 Y114.993 E5.62962
G1 X209.819 Y115.315 E5.65372
G1 X209.294 Y115.558 E5.67681
G1 X208.969 Y115.684 E5.69073
G1 X208.393 Y115.864 E5.71481
G1 X207.885 Y115.957 E5.73542
G1 X207.556 Y115.998 E5.74866
G1 X206.992 Y116.033 E5.77121
G1 X105.991 Y116.032 E9.80238
G1 X105.223 Y115.967 E9.83314
G1 X104.819 Y115.898 E9.8495
G1 X104.232 Y115.757 E9.87359
G1 X103.673 Y115.542 E9.8975
G1 X103.366 Y115.4 E9.911
G1 X102.836 Y115.111 E9.93509
G1 X102.382 Y114.781 E9.95749
G1 X102.116 Y114.562 E9.97125
G1 X101.676 Y114.149 E9.99533
G1 X101.329 Y113.728 E10.01711
G1 X101.13 Y113.455 E10.03059
G1 X100.808 Y112.945 E10.05466
G1 X100.562 Y112.415 E10.07798
G1 X100.437 Y112.092 E10.09181
G1 X100.257 Y111.516 E10.11589
G1 X100.165 Y111.008 E10.1365
G1 X100.124 Y110.678 E10.14977
G1 X100.089 Y110.116 E10.17224
G1 X100.089 Y89.914 E10.97855
G1 X100.129 Y89.312 E11.00263
G1 X100.248 Y88.72 E11.02673
G1 X100.444 Y88.149 E11.05083
G1 X100.714 Y87.609 E11.07492
G1 X101.053 Y87.11 E11.099
G0 F3600 X101.529 Y87.285
G1 F1200 X101.905 Y86.888 E11.12082
G1 X102.336 Y86.514 E11.1436
G1 X102.815 Y86.203 E11.16639
G1 X103.333 Y85.962 E11.1892
G1 X103.879 Y85.796 E11.21197
G1 X104.443 Y85.708 E11.23476
G1 X104.79 Y85.693 E11.24862
G1 X208.208 Y85.693 E15.37625
G1 X208.778 Y85.733 E15.39906
G1 X209.336 Y85.852 E15.42183
G1 X209.872 Y86.048 E15.44461
G1 X210.376 Y86.317 E15.46741
G1 X210.837 Y86.653 E15.49018
G1 X211.234 Y87.029 E15.512
G1 X211.608 Y87.46 E15.53478
G1 X211.919 Y87.939 E15.55757
G1 X212.16 Y88.457 E15.58038
G1 X212.326 Y89.003 E15.60315
G1 X212.414 Y89.567 E15.62594
G1 X212.429 Y89.914 E15.6398
G1 X212.43 Y110.111 E16.4459
G1 X212.371 Y110.8 E16.4735
G1 X212.298 Y111.226 E16.49075
G1 X212.163 Y111.781 E16.51355
G1 X211.845 Y112.544 E16.54654
G1 X211.571 Y113.045 E16.56933
G1 X211.068 Y113.701 E16.60233
G1 X210.675 Y114.116 E16.62514
G1 X210.047 Y114.605 E16.65691
G1 X209.563 Y114.907 E16.67968
G1 X208.796 Y115.236 E16.71299
G1 X208.25 Y115.405 E16.7358
G1 X207.497 Y115.522 E16.76621
G1 X206.992 Y115.553 E16.78641
G1 X105.991 Y115.552 E20.81758
G1 X105.304 Y115.494 E20.84509
G1 X104.9 Y115.425 E20.86145
G1 X104.345 Y115.289 E20.88426
G1 X103.874 Y115.106 E20.90442
G1 X103.567 Y114.964 E20.91792
G1 X103.067 Y114.689 E20.9407
G1 X102.421 Y114.192 E20.97323
G1 X102.006 Y113.799 E20.99604
G1 X101.518 Y113.172 E21.02775
G1 X101.215 Y112.689 E21.05051
G1 X100.885 Y111.919 E21.08395
G1 X100.717 Y111.373 E21.10675
G1 X100.6 Y110.619 E21.1372
G1 X100.569 Y110.116 E21.15732
G1 X100.569 Y89.914 E21.96362
G1 X100.609 Y89.344 E21.98643
G1 X100.728 Y88.786 E22.0092
G1 X100.924 Y88.25 E22.03198
G1 X101.193 Y87.746 E22.05478
G1 X101.529 Y87.285 E22.07755
G0 F3600 X101.671 Y87.892
G1 F1200 X102.103 Y87.368 E22.10465
G1 X102.244 Y87.227 E22.11261
G1 X102.651 Y86.878 E22.13401
G1 X103.105 Y86.592 E22.15542
G1 X103.596 Y86.377 E22.17682
G1 X104.114 Y86.237 E22.19823
G1 X104.79 Y86.173 E22.22534
G1 X208.208 Y86.173 E26.35297
G1 X208.743 Y86.213 E26.37438
G1 X209.266 Y86.332 E26.39579
G1 X209.765 Y86.527 E26.41717
G1 X210.23 Y86.795 E26.4386
G1 X210.754 Y87.227 E26.4657
G1 X210.895 Y87.368 E26.47366
G1 X211.244 Y87.775 E26.49506
G1 X211.53 Y88.229 E26.51647
G1 X211.745 Y88.72 E26.53787
G1 X211.885 Y89.238 E26.55928
G1 X211.949 Y89.914 E26.58638
G1 X211.95 Y110.111 E27.39249
G1 X211.898 Y110.719 E27.41685
G1 X211.825 Y111.145 E27.4341
G1 X211.696 Y111.665 E27.45548
G1 X211.409 Y112.344 E27.4849
G1 X211.149 Y112.813 E27.5063
G1 X210.697 Y113.396 E27.53575
G1 X210.326 Y113.784 E27.55717
G1 X209.765 Y114.217 E27.58546
G1 X209.309 Y114.499 E27.60686
G1 X208.622 Y114.789 E27.63662
G1 X208.109 Y114.945 E27.65802
G1 X207.437 Y115.045 E27.68514
G1 X206.992 Y115.073 E27.70293
G1 X105.991 Y115.072 E31.7341
G1 X105.385 Y115.021 E31.75837
G1 X104.981 Y114.952 E31.77473
G1 X104.46 Y114.822 E31.79616
G1 X103.769 Y114.528 E31.82613
G1 X103.3 Y114.268 E31.84754
G1 X102.726 Y113.821 E31.87657
G1 X102.338 Y113.45 E31.898
G1 X101.906 Y112.89 E31.92623
G1 X101.623 Y112.434 E31.94765
G1 X101.333 Y111.745 E31.97748
G1 X101.177 Y111.232 E31.99888
G1 X101.076 Y110.56 E32.02601
G1 X101.049 Y110.116 E32.04376
G1 X101.049 Y89.914 E32.85007
G1 X101.089 Y89.379 E32.87148
G1 X101.208 Y88.856 E32.89289
G1 X101.403 Y88.357 E32.91427
G1 X101.671 Y87.892 E32.93569
G0 F3600 X102.148 Y88.049
G1 F1200 X102.584 Y87.567 E32.96163
G1 X102.964 Y87.243 E32.98156
G1 X103.391 Y86.984 E33.00149
G1 X103.853 Y86.797 E33.02139
G1 X104.34 Y86.686 E33.04132
G1 X104.79 Y86.653 E33.05933
G1 X208.208 Y86.653 E37.18697
G1 X208.706 Y86.693 E37.20691
G1 X209.19 Y86.812 E37.2268
G1 X209.65 Y87.006 E37.24673
G1 X210.073 Y87.272 E37.26667
G1 X210.555 Y87.708 E37.29261
G1 X210.879 Y88.088 E37.31254
G1 X211.138 Y88.515 E37.33247
G1 X211.325 Y88.977 E37.35237
G1 X211.436 Y89.464 E37.3723
G1 X211.469 Y89.914 E37.39031
G1 X211.47 Y110.111 E38.19642
G1 X211.425 Y110.638 E38.21753
G1 X211.229 Y111.548 E38.25468
G1 X210.973 Y112.144 E38.28057
G1 X210.546 Y112.825 E38.31265
G1 X209.98 Y113.45 E38.3463
G1 X209.482 Y113.828 E38.37126
G1 X208.774 Y114.215 E38.40346
G1 X207.97 Y114.484 E38.4373
G1 X207.378 Y114.569 E38.46117
G1 X206.992 Y114.593 E38.47661
G1 X105.991 Y114.592 E42.50777
G1 X105.466 Y114.547 E42.5288
G1 X104.578 Y114.355 E42.56507
G1 X103.97 Y114.093 E42.59149
G1 X103.297 Y113.67 E42.62322
G1 X102.672 Y113.104 E42.65687
G1 X102.294 Y112.607 E42.68179
G1 X101.905 Y111.895 E42.71417
G1 X101.638 Y111.094 E42.74787
G1 X101.553 Y110.501 E42.77178
G1 X101.529 Y110.116 E42.78718
G1 X101.529 Y89.914 E43.59348
G1 X101.569 Y89.416 E43.61342
G1 X101.688 Y88.932 E43.63332
G1 X101.882 Y88.472 E43.65324
G1 X102.148 Y88.049 E43.67319
G0 F3600 X102.782 Y88.047
G1 F1200 X103.275 Y87.611 E43.69945
G1 X103.672 Y87.381 E43.71777
G1 X104.104 Y87.224 E43.73611
G1 X104.79 Y87.133 E43.76373
G1 X208.208 Y87.133 E47.89137
G1 X208.665 Y87.173 E47.90968
G1 X209.109 Y87.291 E47.92801
G1 X209.525 Y87.485 E47.94633
G1 X210.075 Y87.906 E47.97398
G1 X210.511 Y88.399 E48.00024
G1 X210.741 Y88.796 E48.01856
G1 X210.898 Y89.228 E48.0369
G1 X210.989 Y89.914 E48.06452
G1 X210.99 Y110.111 E48.87063
G1 X210.879 Y110.983 E48.90571
G1 X210.676 Y111.638 E48.93308
G1 X210.536 Y111.943 E48.94648
G1 X210.175 Y112.52 E48.97364
G1 X209.956 Y112.786 E48.98739
G1 X209.472 Y113.242 E49.01393
G1 X209.2 Y113.44 E49.02736
G1 X208.6 Y113.767 E49.05463
G1 X208.275 Y113.893 E49.06855
G1 X207.647 Y114.052 E49.0944
G1 X206.992 Y114.113 E49.12066
G1 X105.991 Y114.112 E53.15183
G1 X105.143 Y114.005 E53.18594
G1 X104.479 Y113.799 E53.21369
G1 X104.172 Y113.657 E53.22719
G1 X103.602 Y113.299 E53.25405
G1 X103.336 Y113.08 E53.2678
G1 X102.881 Y112.597 E53.29429
G1 X102.682 Y112.324 E53.30777
G1 X102.353 Y111.722 E53.33515
G1 X102.228 Y111.399 E53.34898
G1 X102.07 Y110.771 E53.37482
G1 X102.009 Y110.116 E53.40108
G1 X102.009 Y89.914 E54.20738
G1 X102.049 Y89.457 E54.22569
G1 X102.167 Y89.013 E54.24403
G1 X102.361 Y88.597 E54.26235
G1 X102.782 Y88.047 E54.28999
G0 F3600 X102.839 Y88.735
G1 F1200 X103.263 Y88.246 E54.31583
G1 X103.583 Y87.982 E54.33238
G1 X103.948 Y87.784 E54.34896
G1 X104.344 Y87.659 E54.36553
G1 X104.79 Y87.613 E54.38343
G1 X208.208 Y87.613 E58.51106
G1 X208.621 Y87.653 E58.52762
G1 X209.019 Y87.771 E58.54419
G1 X209.387 Y87.963 E58.56076
G1 X209.876 Y88.387 E58.58659
G1 X210.14 Y88.707 E58.60315
G1 X210.338 Y89.072 E58.61972
G1 X210.463 Y89.468 E58.63629
G1 X210.509 Y89.914 E58.65419
G1 X210.51 Y110.111 E59.4603
G1 X210.406 Y110.902 E59.49214
G1 X210.24 Y111.438 E59.51453
G1 X210.1 Y111.743 E59.52793
G1 X209.805 Y112.215 E59.55014
G1 X209.586 Y112.481 E59.56389
G1 X209.189 Y112.854 E59.58564
G1 X208.917 Y113.052 E59.59906
G1 X208.427 Y113.32 E59.62136
G1 X208.102 Y113.446 E59.63527
G1 X207.588 Y113.575 E59.65642
G1 X206.992 Y113.633 E59.68032
G1 X105.991 Y113.632 E63.71149
G1 X105.223 Y113.532 E63.7424
G1 X104.68 Y113.363 E63.7651
G1 X104.373 Y113.221 E63.7786
G1 X103.907 Y112.929 E63.80054
G1 X103.641 Y112.71 E63.8143
G1 X103.269 Y112.314 E63.83598
G1 X103.07 Y112.041 E63.84947
G1 X102.801 Y111.549 E63.87185
G1 X102.676 Y111.226 E63.88567
G1 X102.546 Y110.712 E63.90683
G1 X102.489 Y110.116 E63.93073
G1 X102.489 Y89.914 E64.73703
G1 X102.529 Y89.501 E64.75359
G1 X102.647 Y89.103 E64.77016
G1 X102.839 Y88.735 E64.78673
G0 F3600 X103.461 Y88.726
G1 F1200 X103.888 Y88.356 E64.80928
G1 X104.216 Y88.194 E64.82388
G1 X104.79 Y88.093 E64.84714
G1 X208.208 Y88.093 E68.97478
G1 X208.572 Y88.133 E68.98939
G1 X208.918 Y88.251 E69.00398
G1 X209.396 Y88.585 E69.02726
G1 X209.766 Y89.012 E69.04981
G1 X209.928 Y89.34 E69.06441
G1 X210.029 Y89.914 E69.08767
G1 X210.03 Y110.111 E69.89378
G1 X209.933 Y110.821 E69.92238
G1 X209.664 Y111.543 E69.95313
G1 X209.215 Y112.176 E69.9841
G1 X208.635 Y112.664 E70.01436
G1 X207.928 Y112.998 E70.04556
G1 X207.2 Y113.14 E70.07517
G1 X206.992 Y113.153 E70.08349
G1 X105.991 Y113.152 E74.11465
G1 X105.304 Y113.059 E74.14232
G1 X104.882 Y112.928 E74.15996
G1 X104.212 Y112.558 E74.19051
G1 X103.656 Y112.032 E74.22105
G1 X103.457 Y111.759 E74.23454
G1 X103.123 Y111.052 E74.26575
G1 X102.982 Y110.323 E74.29538
G1 X102.969 Y110.116 E74.30366
G1 X102.969 Y89.914 E75.10997
G1 X103.009 Y89.55 E75.12458
G1 X103.127 Y89.204 E75.13917
G1 X103.461 Y88.726 E75.16245
G0 F3600 X103.606 Y89.321
G1 F1200 X103.941 Y88.924 E75.18318
G1 X104.186 Y88.736 E75.1955
G1 X104.471 Y88.616 E75.20785
G1 X104.79 Y88.573 E75.22069
G1 X208.208 Y88.573 E79.34833
G1 X208.515 Y88.613 E79.36069
G1 X208.801 Y88.73 E79.37302
G1 X209.198 Y89.065 E79.39375
G1 X209.386 Y89.31 E79.40608
G1 X209.506 Y89.595 E79.41842
G1 X209.549 Y89.914 E79.43127
G1 X209.55 Y110.111 E80.23737
G1 X209.46 Y110.74 E80.26273
G1 X209.228 Y111.343 E80.28852
G1 X208.844 Y111.871 E80.31458
G1 X208.352 Y112.276 E80.34001
G1 X207.755 Y112.551 E80.36625
G1 X207.14 Y112.664 E80.3912
G1 X206.992 Y112.673 E80.39712
G1 X105.991 Y112.672 E84.42829
G1 X105.385 Y112.586 E84.45272
G1 X104.776 Y112.35 E84.47879
G1 X104.251 Y111.968 E84.5047
G1 X103.845 Y111.476 E84.53016
G1 X103.571 Y110.879 E84.55638
G1 X103.458 Y110.264 E84.58133
G1 X103.449 Y110.116 E84.58725
G1 X103.449 Y89.914 E85.39356
G1 X103.489 Y89.607 E85.40591
G1 X103.606 Y89.321 E85.41825
G0 F3600 X104.14 Y89.405
G1 F1200 X104.476 Y89.125 E85.4357
G1 X104.79 Y89.053 E85.44856
G1 X208.208 Y89.053 E89.5762
G1 X208.444 Y89.093 E89.58575
G1 X208.717 Y89.264 E89.59861
G1 X208.997 Y89.6 E89.61606
G1 X209.069 Y89.914 E89.62892
G1 X209.07 Y110.111 E90.43503
G1 X208.987 Y110.659 E90.45715
G1 X208.791 Y111.142 E90.47795
G1 X208.474 Y111.566 E90.49908
G1 X208.07 Y111.888 E90.5197
G1 X207.581 Y112.103 E90.54102
G1 X207.081 Y112.187 E90.56126
G1 X206.992 Y112.193 E90.56482
G1 X105.991 Y112.192 E94.59599
G1 X105.466 Y112.113 E94.61718
G1 X104.978 Y111.914 E94.63821
G1 X104.556 Y111.598 E94.65925
G1 X104.233 Y111.193 E94.67993
G1 X104.019 Y110.706 E94.70116
G1 X103.934 Y110.205 E94.72144
G1 X103.929 Y110.116 E94.725
G1 X103.929 Y89.914 E95.5313
G1 X103.969 Y89.678 E95.54086
G1 X104.14 Y89.405 E95.55371
G0 F3600 X104.479 Y89.744
G1 F1200 X104.62 Y89.603 E95.56167
G1 X104.79 Y89.533 E95.56901
G1 X208.208 Y89.533 E99.69665
G1 X208.378 Y89.603 E99.70398
G1 X208.519 Y89.744 E99.71194
G1 X208.589 Y89.914 E99.71928
G1 X208.59 Y110.111 E100.52539
G1 X208.495 Y110.637 E100.54672
G1 X208.322 Y110.995 E100.56259
G1 X208.059 Y111.302 E100.57872
G1 X207.733 Y111.53 E100.5946
G1 X207.351 Y111.67 E100.61084
G1 X206.992 Y111.713 E100.62527
G1 X105.991 Y111.712 E104.65644
G1 X105.486 Y111.621 E104.67692
G1 X105.127 Y111.446 E104.69286
G1 X104.82 Y111.183 E104.70899
G1 X104.591 Y110.856 E104.72493
G1 X104.452 Y110.476 E104.74108
G1 X104.409 Y110.116 E104.75555
G1 X104.409 Y89.914 E105.56185
G1 X104.479 Y89.744 E105.56919
G1 F2700 E97.56919
G0 F3600 X103.984 Y89.744
G0 X98.268 Y150.189
G1 F2700 E105.56919
G1 F1200 X201.686 Y150.189 E109.69683
G1 X202.288 Y150.229 E109.72091
G1 X202.88 Y150.348 E109.74501
G1 X203.451 Y150.544 E109.7691
G1 X203.991 Y150.814 E109.7932
G1 X204.49 Y151.153 E109.81728
G1 X204.91 Y151.525 E109.83967
G1 X205.051 Y151.666 E109.84763
G1 X205.449 Y152.12 E109.87172
G1 X205.783 Y152.622 E109.89579
G1 X206.048 Y153.165 E109.91991
G1 X206.239 Y153.738 E109.94401
G1 X206.353 Y154.33 E109.96807
G1 X206.387 Y154.89 E109.99047
G1 X206.388 Y175.087 E110.79657
G1 X206.322 Y175.861 E110.82758
G1 X206.249 Y176.285 E110.84475
G1 X206.107 Y176.872 E110.86885
G1 X205.896 Y177.42 E110.89229
G1 X205.754 Y177.728 E110.90583
G1 X205.466 Y178.258 E110.9299
G1 X205.146 Y178.702 E110.95175
G1 X204.933 Y178.963 E110.96519
G1 X204.521 Y179.405 E110.98931
G1 X204.08 Y179.769 E111.01213
G1 X203.802 Y179.971 E111.02585
G1 X203.292 Y180.293 E111.04992
G1 X202.763 Y180.536 E111.07315
G1 X202.439 Y180.661 E111.08701
G1 X201.863 Y180.841 E111.1111
G1 X201.044 Y180.973 E111.14421
G1 X200.468 Y181.009 E111.16724
G1 X99.487 Y181.009 E115.19761
G1 X98.722 Y180.944 E115.22826
G1 X98.299 Y180.872 E115.24538
G1 X97.712 Y180.732 E115.26947
G1 X97.15 Y180.516 E115.2935
G1 X96.843 Y180.374 E115.307
G1 X96.313 Y180.085 E115.33109
G1 X95.869 Y179.764 E115.35296
G1 X95.605 Y179.548 E115.36657
G1 X95.165 Y179.136 E115.39063
G1 X94.808 Y178.705 E115.41297
G1 X94.609 Y178.432 E115.42645
G1 X94.287 Y177.922 E115.45052
G1 X94.043 Y177.397 E115.47363
G1 X93.916 Y177.07 E115.48763
G1 X93.736 Y176.494 E115.51172
G1 X93.641 Y175.976 E115.53274
G1 X93.601 Y175.651 E115.54581
G1 X93.567 Y175.094 E115.56808
G1 X93.567 Y154.89 E116.37446
G1 X93.607 Y154.288 E116.39854
G1 X93.726 Y153.696 E116.42265
G1 X93.922 Y153.125 E116.44674
G1 X94.192 Y152.585 E116.47084
G1 X94.531 Y152.086 E116.49491
G1 X94.903 Y151.666 E116.51731
G1 X95.044 Y151.525 E116.52527
G1 X95.498 Y151.127 E116.54936
G1 X96 Y150.793 E116.57343
G1 X96.543 Y150.528 E116.59754
G1 X97.116 Y150.337 E116.62165
G1 X97.708 Y150.223 E116.64571
G1 X98.268 Y150.189 E116.6681
G0 F3600 X98.268 Y150.669
G1 F1200 X201.686 Y150.669 E120.79574
G1 X202.256 Y150.709 E120.81855
G1 X202.814 Y150.828 E120.84132
G1 X203.35 Y151.024 E120.8641
G1 X203.854 Y151.293 E120.8869
G1 X204.315 Y151.629 E120.90967
G1 X204.712 Y152.005 E120.93149
G1 X205.086 Y152.436 E120.95427
G1 X205.397 Y152.915 E120.97706
